!!!!SEGMENT: pl-wtm--r-1690--001_stefani-jozef--oj-zoneczka-ouverture.krn
!!!cenid: 18xx:2307
!!!COM: Stefani, Józef
!!!COM-rismid: pe30024097
!!!CDT: 1800/04/16-1876/03/19
!!!CNT: Polish
!!!OTL: Oj żoneczka – Ouverture
!!!PDT:
!!!AGN: Secular
!!!SMS-siglum: PL-Wtm
!!!SMS-shelfmark: R 1690
!!!SMS-shelfwork: 001-001 M
!!!SMS-variant:
!!!SMS-altvar:
!!!NIFC-rismid: 1001114714
!!!URL-scan: http://repozytorium.nifc.pl/skany/pl-wtm-nut--r1690
!!!ONB-nifc: UWAGA: skany 0003-0006
!!!OMD: Andante.
**kern	**dynam	**kern	**dynam	**kern	**dynam	**kern	**dynam	**kern	**dynam	**kern	**dynam	**kern	**dynam
*part7	*part7	*part6	*part6	*part5	*part5	*part4	*part4	*part3	*part3	*part2	*part2	*part1	*part1
*staff7	*	*staff6	*	*staff5	*	*staff4	*	*staff3	*	*staff2	*	*staff1	*
*I"V: C: C: B:	*	*I"Viola.	*	*I"V II	*	*I"V I	*	*I"Corni in D.	*	*I"Clarinetti in A.	*	*I"Flauto.	*
*I'V:C: C:B:	*	*I'Viola	*	*I'V II	*	*I'V I	*	*I'Corni D.	*	*I'Clar: A.	*	*I'Fl:	*
*clefF4	*	*clefC3	*	*clefG2	*	*clefG2	*	*clefG2	*	*clefG2	*	*clefG2	*
*	*	*	*	*	*	*	*	*ITrd6c10	*	*ITrd2c3	*	*	*
*k[f#c#]	*	*k[f#c#]	*	*k[f#c#]	*	*k[f#c#]	*	*k[f#c#]	*	*k[f#c#]	*	*k[f#c#]	*
*D:	*	*D:	*	*D:	*	*D:	*	*D:	*	*D:	*	*D:	*
*M4/4	*	*M4/4	*	*M4/4	*	*M4/4	*	*M4/4	*	*M4/4	*	*M4/4	*
*met(c)	*	*met(c)	*	*met(c)	*	*met(c)	*	*met(c)	*	*met(c)	*	*met(c)	*
*	*	*	*	*	*	*	*	*	*	*^	*	*	*
4r	.	4r	.	4r	.	4r	.	4r	.	8dd/L	8dd\L	p	4r	.
.	.	.	.	.	.	.	.	.	.	8ee/J	8cc#\J	.	.	.
*	*	*	*	*	*	*	*	*	*	*v	*v	*	*	*
=1	=1	=1	=1	=1	=1	=1	=1	=1	=1	=1	=1	=1	=1
1r	.	1r	.	1r	.	1r	.	2d\ 2f#	p	2dd\ 2ff#	.	1r	.
.	.	.	.	.	.	.	.	2A\ 2e	.	2cc#\ 2ee	.	.	.
=2	=2	=2	=2	=2	=2	=2	=2	=2	=2	=2	=2	=2	=2
*	*	*	*	*	*	*	*	*	*	*^	*	*	*
1r	.	1r	.	1r	.	1r	.	2F#\ 2d	.	2dd/	2dd\	.	1r	.
.	.	.	.	.	.	.	.	2r	.	4r	4ryy	.	.	.
.	.	.	.	.	.	.	.	.	.	8dd/L	8dd\L	.	.	.
.	.	.	.	.	.	.	.	.	.	8ee/J	8cc#\J	.	.	.
*	*	*	*	*	*	*	*	*	*	*v	*v	*	*	*
=3	=3	=3	=3	=3	=3	=3	=3	=3	=3	=3	=3	=3	=3
1r	.	1r	.	1r	.	1r	.	2d\ 2f#	.	2dd\ 2ff#	.	1r	.
.	.	.	.	.	.	.	.	2A\ 2e	.	2cc#\ 2ee	.	.	.
=4	=4	=4	=4	=4	=4	=4	=4	=4	=4	=4	=4	=4	=4
*	*	*	*	*	*	*	*	*	*	*^	*	*	*
1r	.	1r	.	2r	.	2r	.	2F#\ 2d	.	2dd/	2dd\	.	1r	.
.	.	.	.	4r	.	4r	.	2r	.	4r	4ryy	.	.	.
!	!	!	!	!	!LO:DY:rj	!	!LO:DY:rj	!	!	!	!	!	!	!
.	.	.	.	8d/L	p	8d/L	p	.	.	4r	4ryy	.	.	.
.	.	.	.	8c#/J	.	8e/J	.	.	.	.	.	.	.	.
*	*	*	*	*	*	*	*	*	*	*v	*v	*	*	*
=5	=5	=5	=5	=5	=5	=5	=5	=5	=5	=5	=5	=5	=5
2D/	p	2A/	p	2d/	.	2f#/	.	1r	.	1r	.	1r	.
2AA/	.	2G/	.	2c#/	.	2e/	.	.	.	.	.	.	.
!	!	!	!	!	!	!	!	!	!	!	!	!LO:TX:a:t=1	!
=6	=6	=6	=6	=6	=6	=6	=6	=6	=6	=6	=6	=6	=6
2BB/	.	2F#/	.	1d	.	2d/	.	1r	.	1r	.	1r	.
2E\	.	2E/	.	.	.	2g/	.	.	.	.	.	.	.
=7	=7	=7	=7	=7	=7	=7	=7	=7	=7	=7	=7	=7	=7
4AA/	.	4A/	.	4c#/	.	4e/	.	4r	.	4r	.	4r	.
4r	.	4r	.	4r	.	4r	.	8.r	.	8.r	.	8.r	.
!	!	!	!	!	!	!	!	!	!LO:DY:rj	!	!LO:DY:rj	!	!LO:DY:rj
.	.	.	.	.	.	.	.	16A\ 16e	p	16cc#\ 16ee	p	16ee\	p
2r	.	2r	.	2r	.	2r	.	4d\ 4f#	.	4dd\ 4ff#	.	4ff#\	.
.	.	.	.	.	.	.	.	8.r	.	8.r	.	8.r	.
.	.	.	.	.	.	.	.	16F#\ 16d	.	16dd\ 16ff#	.	16ddd\	.
=8	=8	=8	=8	=8	=8	=8	=8	=8	=8	=8	=8	=8	=8
4r	.	4r	.	4r	.	4r	.	4A\ 4e	.	4cc#\ 4ee	.	4ccc#\	.
8.r	.	8.r	.	8.r	.	8.r	.	4r	.	4r	.	4r	.
!	!LO:DY:rj	!	!LO:DY:rj	!	!LO:DY:rj	!	!LO:DY:rj	!	!	!	!	!	!
16AA/	p	16A/	p	16c#/	p	16e/	p	.	.	.	.	.	.
4D/	.	4A/	.	4d/	.	4f#/	.	2r	.	2r	.	2r	.
8.r	.	8.r	.	8.r	.	8.r	.	.	.	.	.	.	.
16D/	.	16A/	.	16f#/	.	16dd\	.	.	.	.	.	.	.
=9	=9	=9	=9	=9	=9	=9	=9	=9	=9	=9	=9	=9	=9
*	*	*	*	*	*	*	*	*	*	*^	*	*	*
4AA/	.	4A/	.	4e/	.	4cc#\	.	4r	.	4r	4ryy	.	4r	.
8.r	.	8.r	.	8.r	.	8.r	.	8.r	.	8.r	8.ryy	.	8.r	.
!	!LO:DY:rj	!	!LO:DY:rj	!	!LO:DY:rj	!	!LO:DY:rj	!	!LO:DY:rj	!	!	!LO:DY:rj	!	!LO:DY:rj
16AA/	f	16A\ 16a	f	16a\ 16aa	f	16a\ 16aa	f	16AA/ 16A	f	16a/	16a\	f	16aa\	f
4AA/	.	4A\ 4a	.	4a\ 4aa	.	4a\ 4aa	.	4AA/ 4A	.	4a/	4a\	.	4aa\	.
4AA/	.	4A\ 4a	.	4a\ 4aa	.	4a\ 4aa	.	4AA/ 4A	.	4a/	4a\	.	4aa\	.
=10	=10	=10	=10	=10	=10	=10	=10	=10	=10	=10	=10	=10	=10	=10
2AA/	.	2A\ 2a	.	2a\ 2aa	.	2a\ 2aa	.	2AA/ 2A	.	2a/	2a\	.	2aa\	.
2r	.	2r	.	2r	.	2r	.	2r	.	2r	2ryy	.	2r	.
*	*	*	*	*	*	*	*	*	*	*v	*v	*	*	*
=11||	=11||	=11||	=11||	=11||	=11||	=11||	=11||	=11||	=11||	=11||	=11||	=11||	=11||
*k[f#c#]	*	*k[f#c#]	*	*k[f#c#]	*	*k[f#c#]	*	*k[f#c#]	*	*k[f#c#]	*	*k[f#c#]	*
*M2/4	*	*M2/4	*	*M2/4	*	*M2/4	*	*M2/4	*	*M2/4	*	*M2/4	*
!	!	!	!	!	!	!	!	!	!	!	!	!LO:TX:a:t=Allegro.	!
8D/	p	8A/	p	8f#/	p	8.a/L	p	2r	.	2r	.	2r	.
8r	.	8r	.	8r	.	.	.	.	.	.	.	.	.
.	.	.	.	.	.	16g/K	.	.	.	.	.	.	.
8D/	.	8A/	.	8f#/	.	8.f#/	.	.	.	.	.	.	.
8r	.	8r	.	8r	.	.	.	.	.	.	.	.	.
.	.	.	.	.	.	16g/Jk	.	.	.	.	.	.	.
!	!	!	!	!	!	!	!	!	!	!	!	!LO:TX:a:t=2	!
=12	=12	=12	=12	=12	=12	=12	=12	=12	=12	=12	=12	=12	=12
*rep	*	*rep	*	*rep	*	*	*	*	*	*	*	*	*
8D/	.	8A/	.	8f#/	.	4a/	.	2r	.	2r	.	2r	.
8r	.	8r	.	8r	.	.	.	.	.	.	.	.	.
8D/	.	8A/	.	8f#/	.	4dd\	.	.	.	.	.	.	.
8r	.	8r	.	8r	.	.	.	.	.	.	.	.	.
*Xrep	*	*Xrep	*	*Xrep	*	*	*	*	*	*	*	*	*
!!LO:LB:g=original
=13	=13	=13	=13	=13	=13	=13	=13	=13	=13	=13	=13	=13	=13
*rep	*	*	*	*	*	*	*	*	*	*	*	*	*
8D/	.	8B/	.	8g/	.	2b/	.	2r	.	2r	.	2r	.
8r	.	8r	.	8r	.	.	.	.	.	.	.	.	.
8D/	.	8B/	.	8g/	.	.	.	.	.	.	.	.	.
8r	.	8r	.	8r	.	.	.	.	.	.	.	.	.
*Xrep	*	*	*	*	*	*	*	*	*	*	*	*	*
=14	=14	=14	=14	=14	=14	=14	=14	=14	=14	=14	=14	=14	=14
*rep	*	*	*	*	*	*	*	*	*	*	*	*	*
8D/	.	8A/	.	8f#/	.	4a/	.	2r	.	2r	.	2r	.
8r	.	8r	.	8r	.	.	.	.	.	.	.	.	.
8D/	.	8A/	.	8f#/	.	8.dd\L	.	.	.	.	.	.	.
8r	.	8r	.	8r	.	.	.	.	.	.	.	.	.
.	.	.	.	.	.	16cc#\Jk	.	.	.	.	.	.	.
*Xrep	*	*	*	*	*	*	*	*	*	*	*	*	*
=15	=15	=15	=15	=15	=15	=15	=15	=15	=15	=15	=15	=15	=15
8G\	.	8B/	.	8d/	.	4b/	.	2r	.	2r	.	2r	.
8r	.	8r	.	8r	.	.	.	.	.	.	.	.	.
8F#\	.	8A/	.	8d/	.	4a/	.	.	.	.	.	.	.
8r	.	8r	.	8r	.	.	.	.	.	.	.	.	.
=16	=16	=16	=16	=16	=16	=16	=16	=16	=16	=16	=16	=16	=16
8E\	.	8B/	.	8d/	.	8.g#X/L	.	2r	.	2r	.	2r	.
8r	.	8r	.	8r	.	.	.	.	.	.	.	.	.
.	.	.	.	.	.	16a/K	.	.	.	.	.	.	.
8E\	.	8d\	.	8g#X/	.	8.b/	.	.	.	.	.	.	.
8r	.	8r	.	8r	.	.	.	.	.	.	.	.	.
.	.	.	.	.	.	16cc#/Jk	.	.	.	.	.	.	.
=17	=17	=17	=17	=17	=17	=17	=17	=17	=17	=17	=17	=17	=17
8E#X\	.	8B/	.	8g#X/	.	2dd\	.	2r	.	2r	.	2r	.
8r	.	8r	.	8r	.	.	.	.	.	.	.	.	.
8E#\	.	8B/	.	8g#/	.	.	.	.	.	.	.	.	.
8r	.	8r	.	8r	.	.	.	.	.	.	.	.	.
=18	=18	=18	=18	=18	=18	=18	=18	=18	=18	=18	=18	=18	=18
8F#\	.	8A/	.	8a/	.	4cc#\	.	2r	.	2r	.	2r	.
8r	.	8r	.	8r	.	.	.	.	.	.	.	.	.
8C#/	.	8A/	.	8e/	.	8.ee\L	.	.	.	.	.	.	.
8r	.	8r	.	8r	.	.	.	.	.	.	.	.	.
.	.	.	.	.	.	16ee\Jk	.	.	.	.	.	.	.
=19	=19	=19	=19	=19	=19	=19	=19	=19	=19	=19	=19	=19	=19
8D/	.	8A/	.	8f#/	.	4dd\	.	2r	.	2r	.	2r	.
8r	.	8r	.	8r	.	.	.	.	.	.	.	.	.
8D/	.	8B/	.	8f#/	.	4b/	.	.	.	.	.	.	.
8r	.	8r	.	8r	.	.	.	.	.	.	.	.	.
=20	=20	=20	=20	=20	=20	=20	=20	=20	=20	=20	=20	=20	=20
8E\	.	8B/	.	8d/	.	8.g#X/L	.	2r	.	2r	.	2r	.
8r	.	8r	.	8r	.	.	.	.	.	.	.	.	.
.	.	.	.	.	.	16a/K	.	.	.	.	.	.	.
8E\	.	8d\	.	8g#X/	.	8.b/	.	.	.	.	.	.	.
8r	.	8r	.	8r	.	.	.	.	.	.	.	.	.
.	.	.	.	.	.	16cc#/Jk	.	.	.	.	.	.	.
!	!	!	!	!	!	!	!	!	!	!	!	!LO:TX:a:t=3.	!
=21	=21	=21	=21	=21	=21	=21	=21	=21	=21	=21	=21	=21	=21
8A\	.	8c#\	.	8a/	.	8.a/L	.	2r	.	2r	.	2r	.
8r	.	8r	.	8r	.	.	.	.	.	.	.	.	.
.	.	.	.	.	.	16b/K	.	.	.	.	.	.	.
8AA/	.	8A/	.	8e/	.	8.gn/	.	.	.	.	.	.	.
8r	.	8r	.	8r	.	.	.	.	.	.	.	.	.
.	.	.	.	.	.	16a/Jk	.	.	.	.	.	.	.
=22	=22	=22	=22	=22	=22	=22	=22	=22	=22	=22	=22	=22	=22
8AA/	.	8A/	.	8d/	.	8.f#/L	.	2r	.	2r	.	2r	.
8r	.	8r	.	8r	.	.	.	.	.	.	.	.	.
.	.	.	.	.	.	16g/K	.	.	.	.	.	.	.
8AA/	.	8A/	.	8c#/	.	8.e/	.	.	.	.	.	.	.
8r	.	8r	.	8r	.	.	.	.	.	.	.	.	.
.	.	.	.	.	.	16f#/Jk	.	.	.	.	.	.	.
=23	=23	=23	=23	=23	=23	=23	=23	=23	=23	=23	=23	=23	=23
!	!	!	!	!	!	!	!	!	!	!	!LO:DY:rj	!	!LO:DY:rj
8D\	.	8F#/	.	8d/	.	8d/	.	2r	.	8.a\L 8.ff#	p	8.aa\L	p
8r	.	8r	.	8r	.	8r	.	.	.	.	.	.	.
.	.	.	.	.	.	.	.	.	.	16g\K 16ee	.	16gg\K	.
8D\	.	8A/	.	8d/	.	8f#/	.	.	.	8.f#\ 8.dd	.	8.ff#\	.
8r	.	8r	.	8r	.	8r	.	.	.	.	.	.	.
.	.	.	.	.	.	.	.	.	.	16g\Jk 16ee	.	16gg\Jk	.
=24	=24	=24	=24	=24	=24	=24	=24	=24	=24	=24	=24	=24	=24
*rep	*	*	*	*	*	*	*	*	*	*	*	*	*
8D\	.	8A/	.	8d/	.	8f#/	.	2r	.	4a\ 4ff#	.	4aa\	.
8r	.	8r	.	8r	.	8r	.	.	.	.	.	.	.
8D\	.	8A/	.	8d/	.	8f#/	.	.	.	4dd\ 4ff#	.	4ddd\	.
8r	.	8r	.	8r	.	8r	.	.	.	.	.	.	.
*Xrep	*	*	*	*	*	*	*	*	*	*	*	*	*
=25	=25	=25	=25	=25	=25	=25	=25	=25	=25	=25	=25	=25	=25
*rep	*	*	*	*	*	*	*	*	*	*	*	*	*
8D\	.	8B/	.	8d/	.	8g/	.	2r	.	2b\ 2gg	.	2bb\	.
8r	.	8r	.	8r	.	8r	.	.	.	.	.	.	.
8D\	.	8B/	.	8d/	.	8g/	.	.	.	.	.	.	.
8r	.	8r	.	8r	.	8r	.	.	.	.	.	.	.
*Xrep	*	*	*	*	*	*	*	*	*	*	*	*	*
=26	=26	=26	=26	=26	=26	=26	=26	=26	=26	=26	=26	=26	=26
*rep	*	*	*	*	*	*	*	*	*	*	*	*	*
8D\	.	8A/	.	8d/	.	8f#/	.	2r	.	4a\ 4ff#	.	4aa\	.
8r	.	8r	.	8r	.	8r	.	.	.	.	.	.	.
8D\	.	8A/	.	8d/	.	8f#/	.	.	.	8.dd\L 8.ff#	.	8.ddd\L	.
8r	.	8r	.	8r	.	8r	.	.	.	.	.	.	.
.	.	.	.	.	.	.	.	.	.	16cc#\Jk 16aa	.	16ccc#\Jk	.
*Xrep	*	*	*	*	*	*	*	*	*	*	*	*	*
=27	=27	=27	=27	=27	=27	=27	=27	=27	=27	=27	=27	=27	=27
8G\	.	8B/	.	8d/	.	8g/	.	2r	.	4b\ 4gg	.	4bb\	.
8r	.	8r	.	8r	.	8r	.	.	.	.	.	.	.
8E\	.	8B/	.	8e/	.	8g/	.	.	.	4ee\ 4gg	.	4eee\	.
8r	.	8r	.	8r	.	8r	.	.	.	.	.	.	.
=28	=28	=28	=28	=28	=28	=28	=28	=28	=28	=28	=28	=28	=28
8A\	.	8A/	.	8d/	.	8f#/	.	2r	.	4dd\ 4ff#	.	4ddd\	.
8r	.	8r	.	8r	.	8r	.	.	.	.	.	.	.
8AA/	.	8A/	.	8c#/	.	8e/	.	.	.	4cc#\ 4ee	.	4ccc#\	.
8r	.	8r	.	8r	.	8r	.	.	.	.	.	.	.
=29	=29	=29	=29	=29	=29	=29	=29	=29	=29	=29	=29	=29	=29
8D\	.	8A/	.	8d/	.	8f#/	.	2r	.	2dd\ 2ff#	.	2ddd\	.
8r	.	8r	.	8r	.	8r	.	.	.	.	.	.	.
8D\	.	8A/	.	8d/	.	8f#/	.	.	.	.	.	.	.
!LO:TX:b:t=VS.	!	!	!	!	!	!	!	!	!	!	!	!	!
8r	.	8r	.	8r	.	8r	.	.	.	.	.	.	.
!!LO:PB:g=original
=30	=30	=30	=30	=30	=30	=30	=30	=30	=30	=30	=30	=30	=30
8F#\	.	8A/	.	8d/	.	8a/	.	2r	.	8dd\ 8ff#	.	8ddd\	.
8r	.	8r	.	8r	.	8r	.	.	.	8r	.	8r	.
8F#\	.	8A#X/	.	8d/	.	8a#X/	.	.	.	8.dd\L 8.ff#	.	8.ddd\L	.
8r	.	8r	.	8r	.	8r	.	.	.	.	.	.	.
.	.	.	.	.	.	.	.	.	.	16cc#\Jk 16ee	.	16ccc#\Jk	.
=31	=31	=31	=31	=31	=31	=31	=31	=31	=31	=31	=31	=31	=31
8G\	.	8B/	.	8d/	.	8b/	.	2r	.	4b\ 4dd	.	4bb\	.
8r	.	8r	.	8r	.	8r	.	.	.	.	.	.	.
8E\	.	8B/	.	8e/	.	8g/	.	.	.	4b\ 4gg	.	4eee\	.
8r	.	8r	.	8r	.	8r	.	.	.	.	.	.	.
=32	=32	=32	=32	=32	=32	=32	=32	=32	=32	=32	=32	=32	=32
8A\	.	8A/	.	8d/	.	8f#/	.	2r	.	8.dd\L 8.ff#	.	8.ddd\L	.
8r	.	8r	.	8r	.	8r	.	.	.	.	.	.	.
.	.	.	.	.	.	.	.	.	.	16cc#\K 16ee	.	16ccc#\K	.
8AA/	.	8A/	.	8c#/	.	8e/	.	.	.	8.b\ 8.dd	.	8.bb\	.
8r	.	8r	.	8r	.	8r	.	.	.	.	.	.	.
.	.	.	.	.	.	.	.	.	.	16cc#\Jk 16ee	.	16ccc#\Jk	.
=33	=33	=33	=33	=33	=33	=33	=33	=33	=33	=33	=33	=33	=33
8D\	.	8A/	.	8d/	.	8f#/	.	2r	.	2dd\ 2ff#	.	2ddd\	.
8r	.	8r	.	8r	.	8r	.	.	.	.	.	.	.
8D\	.	8A/	.	8d/	.	8f#/	.	.	.	.	.	.	.
8r	.	8r	.	8r	.	8r	.	.	.	.	.	.	.
=34	=34	=34	=34	=34	=34	=34	=34	=34	=34	=34	=34	=34	=34
8D\	.	8A/	.	8d/	.	8f#/	.	2r	.	4dd\ 4ff#	.	4ddd\	.
8r	.	8r	.	8r	.	8r	.	.	.	.	.	.	.
8D\	.	8A/	.	8f#/	.	4r	.	.	.	4r	.	4r	.
8r	.	8r	.	8r	.	.	.	.	.	.	.	.	.
=35	=35	=35	=35	=35	=35	=35	=35	=35	=35	=35	=35	=35	=35
8C#/	.	8e\	.	8g/	.	4.ee\	.	2r	.	2r	.	2r	.
8r	.	8r	.	8r	.	.	.	.	.	.	.	.	.
8AA/	.	8c#\	.	8a/	.	.	.	.	.	.	.	.	.
8r	.	8r	.	8r	.	8ee\	.	.	.	.	.	.	.
=36	=36	=36	=36	=36	=36	=36	=36	=36	=36	=36	=36	=36	=36
*rep	*	*	*	*	*	*	*	*	*	*	*	*	*
8C#/	.	8e\	.	8g/	.	8.dd\L	.	2r	.	2r	.	2r	.
8r	.	8r	.	8r	.	.	.	.	.	.	.	.	.
.	.	.	.	.	.	16cc#\K	.	.	.	.	.	.	.
8AA/	.	8c#\	.	8a/	.	8.b\	.	.	.	.	.	.	.
8r	.	8r	.	8r	.	.	.	.	.	.	.	.	.
.	.	.	.	.	.	16cc#\Jk	.	.	.	.	.	.	.
*Xrep	*	*	*	*	*	*	*	*	*	*	*	*	*
=37	=37	=37	=37	=37	=37	=37	=37	=37	=37	=37	=37	=37	=37
8D/	.	8d\	.	8f#/	.	2dd\	.	2r	.	2r	.	2r	.
8r	.	8r	.	8r	.	.	.	.	.	.	.	.	.
8AA/	.	8f#\	.	8a/	.	.	.	.	.	.	.	.	.
8r	.	8r	.	8r	.	.	.	.	.	.	.	.	.
=38	=38	=38	=38	=38	=38	=38	=38	=38	=38	=38	=38	=38	=38
*rep	*	*	*	*	*	*	*	*	*	*	*	*	*
8D/	.	8d\	.	8f#/	.	4a/	.	2r	.	2r	.	2r	.
8r	.	8r	.	8r	.	.	.	.	.	.	.	.	.
8AA/	.	8f#\	.	8a/	.	4r	.	.	.	.	.	.	.
8r	.	8r	.	8r	.	.	.	.	.	.	.	.	.
*Xrep	*	*	*	*	*	*	*	*	*	*	*	*	*
=39	=39	=39	=39	=39	=39	=39	=39	=39	=39	=39	=39	=39	=39
*	*	*	*	*	*	*	*	*	*	*^	*	*	*
!	!	!	!	!	!	!	!	!	!	!LO:TX:a:t=Clar&colon; I.	!	!	!	!
8C#/	.	8A/	.	8e/	.	8g/	.	2r	.	4ee/	2r	p	4eee\	p
8r	.	8r	.	8r	.	8r	.	.	.	.	.	.	.	.
8AA/	.	8c#\	.	8e/	.	8a/	.	.	.	8.ee/L	.	.	8.eee\L	.
8r	.	8r	.	8r	.	8r	.	.	.	.	.	.	.	.
.	.	.	.	.	.	.	.	.	.	16ee/Jk	.	.	16eee\Jk	.
!	!	!	!	!	!	!	!	!	!	!	!	!	!LO:TX:a:t=5.	!
=40	=40	=40	=40	=40	=40	=40	=40	=40	=40	=40	=40	=40	=40	=40
*rep	*	*rep	*	*rep	*	*	*	*	*	*	*	*	*	*
8C#/	.	8A/	.	8e/	.	8g/	.	2r	.	8.dd/L	2r	.	8.ddd\L	.
8r	.	8r	.	8r	.	8r	.	.	.	.	.	.	.	.
.	.	.	.	.	.	.	.	.	.	16cc#/K	.	.	16ccc#\K	.
8AA/	.	8c#\	.	8e/	.	8a/	.	.	.	8.b/	.	.	8.bb\	.
8r	.	8r	.	8r	.	8r	.	.	.	.	.	.	.	.
.	.	.	.	.	.	.	.	.	.	16cc#/Jk	.	.	16ccc#\Jk	.
*Xrep	*	*Xrep	*	*Xrep	*	*	*	*	*	*	*	*	*	*
=41	=41	=41	=41	=41	=41	=41	=41	=41	=41	=41	=41	=41	=41	=41
8D\	.	8d\	.	8d/	.	8f#/	.	2r	.	4dd/	2r	.	4ddd\	.
8r	.	8r	.	8r	.	8r	.	.	.	.	.	.	.	.
8D\	.	8B/	.	8d/	.	8g/	.	.	.	(<16ee/LL	.	.	(16eee\LL	.
.	.	.	.	.	.	.	.	.	.	16dd/	.	.	16ddd\	.
8r	.	8r	.	8r	.	8r	.	.	.	16cc#/	.	.	16ccc#\	.
.	.	.	.	.	.	.	.	.	.	16b/JJ)	.	.	16bb\JJ)	.
=42	=42	=42	=42	=42	=42	=42	=42	=42	=42	=42	=42	=42	=42	=42
*rep	*	*	*	*rep	*	*	*	*	*	*	*	*	*	*
8D\	.	8A/	.	8d/	.	8f#/	.	2r	.	4a/	2r	.	4aa\	.
8r	.	8r	.	8r	.	8r	.	.	.	.	.	.	.	.
8D\	.	8A/	.	8d/	.	8f#/	.	.	.	4r	.	.	4r	.
8r	.	8r	.	8r	.	8r	.	.	.	.	.	.	.	.
*Xrep	*	*	*	*Xrep	*	*	*	*	*	*	*	*	*	*
*	*	*	*	*	*	*	*	*	*	*v	*v	*	*	*
=43	=43	=43	=43	=43	=43	=43	=43	=43	=43	=43	=43	=43	=43
*rep	*	*rep	*	*rep	*	*rep	*	*	*	*	*	*	*
8D\	.	8A/	.	8d/	.	8f#/	.	2r	.	8.a\L 8.ff#	.	8.aa\L	.
8r	.	8r	.	8r	.	8r	.	.	.	.	.	.	.
.	.	.	.	.	.	.	.	.	.	16g\K 16ee	.	16gg\K	.
8D\	.	8A/	.	8d/	.	8f#/	.	.	.	8.f#\ 8.dd	.	8.ff#\	.
8r	.	8r	.	8r	.	8r	.	.	.	.	.	.	.
.	.	.	.	.	.	.	.	.	.	16g\Jk 16ee	.	16gg\Jk	.
*Xrep	*	*Xrep	*	*Xrep	*	*Xrep	*	*	*	*	*	*	*
=44	=44	=44	=44	=44	=44	=44	=44	=44	=44	=44	=44	=44	=44
*rep	*	*rep	*	*rep	*	*rep	*	*	*	*	*	*	*
8D\	.	8A/	.	8d/	.	8f#/	.	2r	.	4a\ 4ff#	.	4aa\	.
8r	.	8r	.	8r	.	8r	.	.	.	.	.	.	.
8D\	.	8A/	.	8d/	.	8f#/	.	.	.	4dd\ 4ff#	.	4ddd\	.
8r	.	8r	.	8r	.	8r	.	.	.	.	.	.	.
*Xrep	*	*Xrep	*	*Xrep	*	*Xrep	*	*	*	*	*	*	*
=45	=45	=45	=45	=45	=45	=45	=45	=45	=45	=45	=45	=45	=45
*rep	*	*	*	*rep	*	*	*	*	*	*	*	*	*
8D\	.	8B/	.	8d/	.	8g/	.	2r	.	2b\ 2gg	.	2bb\	.
8r	.	8r	.	8r	.	8r	.	.	.	.	.	.	.
8D\	.	8B/	.	8d/	.	8g/	.	.	.	.	.	.	.
8r	.	8r	.	8r	.	8r	.	.	.	.	.	.	.
*Xrep	*	*	*	*Xrep	*	*	*	*	*	*	*	*	*
=46	=46	=46	=46	=46	=46	=46	=46	=46	=46	=46	=46	=46	=46
*rep	*	*	*	*rep	*	*	*	*	*	*	*	*	*
8D\	.	8A/	.	8d/	.	8f#/	.	2r	.	4a\ 4ff#	.	4aa\	.
8r	.	8r	.	8r	.	8r	.	.	.	.	.	.	.
8D\	.	8A/	.	8d/	.	8f#/	.	.	.	8.dd\L 8.ff#	.	8.ddd\L	.
8r	.	8r	.	8r	.	8r	.	.	.	.	.	.	.
.	.	.	.	.	.	.	.	.	.	16cc#\Jk 16ee	.	16ccc#\Jk	.
*Xrep	*	*	*	*Xrep	*	*	*	*	*	*	*	*	*
!!LO:LB:g=original
=47	=47	=47	=47	=47	=47	=47	=47	=47	=47	=47	=47	=47	=47
8G\	.	8B/	.	8d/	.	8g/	.	2r	.	4b\ 4dd	.	4bb\	.
8r	.	8r	.	8r	.	8r	.	.	.	.	.	.	.
8E\	.	8B/	.	8e/	.	8g/	.	.	.	4ee\ 4gg	.	4eee\	.
8r	.	8r	.	8r	.	8r	.	.	.	.	.	.	.
=48	=48	=48	=48	=48	=48	=48	=48	=48	=48	=48	=48	=48	=48
8A\	.	8A/	.	8d/	.	8f#/	.	2r	.	4dd\ 4ff#	.	4ddd\	.
8r	.	8r	.	8r	.	8r	.	.	.	.	.	.	.
8AA/	.	8c#\	.	8e/	.	8a/	.	.	.	4cc#\ 4ee	.	4ccc#\	.
8r	.	8r	.	8r	.	8r	.	.	.	.	.	.	.
=49	=49	=49	=49	=49	=49	=49	=49	=49	=49	=49	=49	=49	=49
*	*	*	*	*tremolo	*	*tremolo	*	*	*	*	*	*	*
!	!LO:DY:rj	!	!LO:DY:rj	!	!LO:DY:rj	!	!LO:DY:rj	!	!LO:DY:rj	!	!LO:DY:rj	!	!LO:DY:rj
4D/	ff	4d\	ff	16A/LL 16f#	ff	16f#\LL 16dd	ff	8d\L 8f#	ff	8a\L 8ff#	ff	8ddd\L	ff
.	.	.	.	16A/ 16f#	.	16f#\ 16dd	.	.	.	.	.	.	.
.	.	.	.	16A/ 16f#	.	16f#\ 16dd	.	16d\L 16f#	.	16a\L 16ff#	.	16ddd\L	.
.	.	.	.	16A/ 16f#	.	16f#\ 16dd	.	16d\J 16f#	.	16a\J 16ff#	.	16ddd\J	.
4F#\	.	4f#\	.	16A/ 16f#	.	16f#\ 16dd	.	8d\ 8f#	.	8a\ 8ff#	.	8ddd\	.
.	.	.	.	16A/ 16f#	.	16f#\ 16dd	.	.	.	.	.	.	.
.	.	.	.	16A/ 16f#	.	16f#\ 16dd	.	8d\J 8f#	.	8a\J 8ff#	.	8ddd\J	.
.	.	.	.	16A/JJ 16f#	.	16f#\JJ 16dd	.	.	.	.	.	.	.
!	!	!	!	!	!	!	!	!	!	!	!	!LO:TX:a:t=6.	!
=50	=50	=50	=50	=50	=50	=50	=50	=50	=50	=50	=50	=50	=50
*	*	*	*	*rep	*	*rep	*	*tremolo	*	*tremolo	*	*tremolo	*
4A\	.	4a\	.	16A/LL 16f#	.	16f#\LL 16dd	.	8d\L 8f#	.	8a\L 8ff#	.	8ddd\L	.
.	.	.	.	16A/ 16f#	.	16f#\ 16dd	.	.	.	.	.	.	.
.	.	.	.	16A/ 16f#	.	16f#\ 16dd	.	8d\ 8f#	.	8a\ 8ff#	.	8ddd\	.
.	.	.	.	16A/ 16f#	.	16f#\ 16dd	.	.	.	.	.	.	.
4F#\	.	4f#\	.	16A/ 16f#	.	16f#\ 16dd	.	8d\ 8f#	.	8a\ 8ff#	.	8ddd\	.
.	.	.	.	16A/ 16f#	.	16f#\ 16dd	.	.	.	.	.	.	.
!	!	!	!	!	!	!	!	!	!	!LO:TX:a:t=1.	!	!	!
.	.	.	.	16A/ 16f#	.	16f#\ 16dd	.	8d\J 8f#	.	8a\J 8ff#	.	8ddd\J	.
.	.	.	.	16A/JJ 16f#	.	16f#\JJ 16dd	.	.	.	.	.	.	.
*	*	*	*	*Xrep	*	*Xrep	*	*	*	*	*	*	*
*	*	*	*	*Xtremolo	*	*Xtremolo	*	*Xtremolo	*	*Xtremolo	*	*Xtremolo	*
=51	=51	=51	=51	=51	=51	=51	=51	=51	=51	=51	=51	=51	=51
4D\	.	4d\	.	4A/ 4f#	.	4f#\ 4dd	.	4d\ 4f#	.	4a\ 4ff#	.	4ddd\	.
4r	.	4r	.	4r	.	4r	.	8.d\L 8.f#	.	8.dd\L 8.ff#	.	4r	.
.	.	.	.	.	.	.	.	16d\Jk 16f#	.	16dd\Jk 16ff#	.	.	.
=52	=52	=52	=52	=52	=52	=52	=52	=52	=52	=52	=52	=52	=52
2r	.	2r	.	2r	.	2r	.	4f#\ 4a	.	4ff#\ 4aa	.	2r	.
.	.	.	.	.	.	.	.	4d\ 4f#	.	4dd\ 4ff#	.	.	.
=53	=53	=53	=53	=53	=53	=53	=53	=53	=53	=53	=53	=53	=53
*	*	*	*	*tremolo	*	*tremolo	*	*	*	*	*	*	*
4AA/	.	4A/	.	16e/LL 16cc#	.	16cc#\LL 16aa	.	8A\L 8e	.	8cc#\L 8ee	.	8aa\L	.
.	.	.	.	16e/ 16cc#	.	16cc#\ 16aa	.	.	.	.	.	.	.
.	.	.	.	16e/ 16cc#	.	16cc#\ 16aa	.	16A\L 16e	.	16cc#\L 16ee	.	16aa\L	.
.	.	.	.	16e/ 16cc#	.	16cc#\ 16aa	.	16A\J 16e	.	16cc#\J 16ee	.	16aa\J	.
4C#/	.	4c#/	.	16e/ 16cc#	.	16cc#\ 16aa	.	8A\ 8e	.	8cc#\ 8ee	.	8aa\	.
.	.	.	.	16e/ 16cc#	.	16cc#\ 16aa	.	.	.	.	.	.	.
.	.	.	.	16e/ 16cc#	.	16cc#\ 16aa	.	8A\J 8e	.	8cc#\J 8ee	.	8aa\J	.
.	.	.	.	16e/JJ 16cc#	.	16cc#\JJ 16aa	.	.	.	.	.	.	.
=54	=54	=54	=54	=54	=54	=54	=54	=54	=54	=54	=54	=54	=54
*	*	*	*	*rep	*	*rep	*	*tremolo	*	*tremolo	*	*tremolo	*
4E\	.	4e\	.	16e/LL 16cc#	.	16cc#\LL 16aa	.	8A\L 8e	.	8cc#\L 8ee	.	8aa\L	.
.	.	.	.	16e/ 16cc#	.	16cc#\ 16aa	.	.	.	.	.	.	.
.	.	.	.	16e/ 16cc#	.	16cc#\ 16aa	.	8A\ 8e	.	8cc#\ 8ee	.	8aa\	.
.	.	.	.	16e/ 16cc#	.	16cc#\ 16aa	.	.	.	.	.	.	.
4C#\	.	4c#\	.	16e/ 16cc#	.	16cc#\ 16aa	.	8A\ 8e	.	8cc#\ 8ee	.	8aa\	.
.	.	.	.	16e/ 16cc#	.	16cc#\ 16aa	.	.	.	.	.	.	.
.	.	.	.	16e/ 16cc#	.	16cc#\ 16aa	.	8A\J 8e	.	8cc#\J 8ee	.	8aa\J	.
.	.	.	.	16e/JJ 16cc#	.	16cc#\JJ 16aa	.	.	.	.	.	.	.
*	*	*	*	*Xrep	*	*Xrep	*	*	*	*	*	*	*
*	*	*	*	*Xtremolo	*	*Xtremolo	*	*Xtremolo	*	*Xtremolo	*	*Xtremolo	*
=55	=55	=55	=55	=55	=55	=55	=55	=55	=55	=55	=55	=55	=55
4AA/	.	4A/	.	4e/ 4cc#	.	4cc#\ 4aa	.	4A\ 4e	.	4cc#\ 4ee	.	4aa\	.
4r	.	4r	.	4r	.	4r	.	8.A\L 8.e	.	8.cc#\L 8.ee	.	4r	.
.	.	.	.	.	.	.	.	16A\Jk 16e	.	16cc#\Jk 16ee	.	.	.
=56	=56	=56	=56	=56	=56	=56	=56	=56	=56	=56	=56	=56	=56
2r	.	2r	.	2r	.	2r	.	4e\ 4g	.	4ee\ 4gg	.	2r	.
.	.	.	.	.	.	.	.	4A\ 4e	.	4cc#\ 4ee	.	.	.
=57	=57	=57	=57	=57	=57	=57	=57	=57	=57	=57	=57	=57	=57
*^	*	*	*	*	*	*	*	*	*	*	*	*	*
*tremolo	*tremolo	*	*tremolo	*	*	*	*	*	*tremolo	*	*tremolo	*	*tremolo	*
16D/LL	8D\L	.	16A\LL 16f#	.	16d/LL	.	16dd\LL	.	8d\L 8f#	.	8a\L 8dd	.	8ff#\L	.
16D/	.	.	16A\ 16f#	.	16c#/	.	16cc#\	.	.	.	.	.	.	.
16D/	8D\	.	16A\ 16f#	.	16d/	.	16dd\	.	8d\ 8f#	.	8a\ 8dd	.	8ff#\	.
16D/	.	.	16A\ 16f#	.	16c#/JJ	.	16cc#\JJ	.	.	.	.	.	.	.
16D/	8D\	.	16A\ 16f#	.	16d/LL	.	16dd\LL	.	8d\ 8f#	.	8a\ 8dd	.	8ff#\	.
16D/	.	.	16A\ 16f#	.	16e/	.	16ee\	.	.	.	.	.	.	.
16D/	8D\J	.	16A\ 16f#	.	16f#/	.	16ff#\	.	8d\J 8f#	.	8a\J 8dd	.	8ff#\J	.
16D/JJ	.	.	16A\JJ 16f#	.	16d/JJ	.	16dd\JJ	.	.	.	.	.	.	.
=58	=58	=58	=58	=58	=58	=58	=58	=58	=58	=58	=58	=58	=58	=58
*rep	*rep	*	*	*	*	*	*	*	*	*	*	*	*	*
16D/LL	8D\L	.	16B\LL 16g	.	16g/LL	.	16gg\LL	.	8d\L 8g	.	8b\L 8dd	.	8gg\L	.
16D/	.	.	16B\ 16g	.	16f#/	.	16ff#\	.	.	.	.	.	.	.
16D/	8D\	.	16B\ 16g	.	16g/	.	16gg\	.	8d\ 8g	.	8b\ 8dd	.	8gg\	.
16D/	.	.	16B\ 16g	.	16f#/JJ	.	16ff#\JJ	.	.	.	.	.	.	.
16D/	8D\	.	16B\ 16g	.	16g/LL	.	16gg\LL	.	8d\ 8g	.	8b\ 8dd	.	8gg\	.
16D/	.	.	16B\ 16g	.	16a/	.	16aa\	.	.	.	.	.	.	.
16D/	8D\J	.	16B\ 16g	.	16b/	.	16bb\	.	8d\J 8g	.	8b\J 8dd	.	8gg\J	.
16D/JJ	.	.	16B\JJ 16g	.	16g/JJ	.	16gg\JJ	.	.	.	.	.	.	.
*Xrep	*Xrep	*	*	*	*	*	*	*	*	*	*	*	*	*
=59	=59	=59	=59	=59	=59	=59	=59	=59	=59	=59	=59	=59	=59	=59
*rep	*rep	*	*	*	*	*	*	*	*	*	*	*	*	*
16D/LL	8D\L	.	16A\LL 16f#	.	8a/L	.	8aa\L	.	8d\L 8f#	.	8a\L 8dd	.	8ff#\L	.
16D/	.	.	16A\ 16f#	.	.	.	.	.	.	.	.	.	.	.
16D/	8D\	.	16A\ 16f#	.	16d/L	.	16dd\L	.	8d\ 8f#	.	8a\ 8dd	.	8ff#\	.
16D/	.	.	16A\ 16f#	.	16c#/JJ	.	16cc#\JJ	.	.	.	.	.	.	.
16D/	8D\	.	16A\ 16f#	.	16d/LL	.	16dd\LL	.	8d\ 8f#	.	8a\ 8dd	.	8ff#\	.
16D/	.	.	16A\ 16f#	.	16e/	.	16ee\	.	.	.	.	.	.	.
16D/	8D\J	.	16A\ 16f#	.	16f#/	.	16ff#\	.	8d\J 8f#	.	8a\J 8dd	.	8ff#\J	.
16D/JJ	.	.	16A\JJ 16f#	.	16d/JJ	.	16dd\JJ	.	.	.	.	.	.	.
*Xrep	*Xrep	*	*	*	*	*	*	*	*	*	*	*	*	*
=60	=60	=60	=60	=60	=60	=60	=60	=60	=60	=60	=60	=60	=60	=60
*rep	*rep	*	*	*	*	*	*	*	*	*	*	*	*	*
!	!	!	!	!	!	!	!	!	!	!	!	!	!LO:TX:a:t=7.	!
16D/LL	8D\L	.	16B\LL 16g	.	16g/LL	.	16gg\LL	.	8d\L 8g	.	8b\L 8dd	.	8gg\L	.
16D/	.	.	16B\ 16g	.	16f#/	.	16ff#\	.	.	.	.	.	.	.
16D/	8D\	.	16B\ 16g	.	16g/	.	16gg\	.	8d\ 8g	.	8b\ 8dd	.	8gg\	.
16D/	.	.	16B\ 16g	.	16f#/JJ	.	16ff#\JJ	.	.	.	.	.	.	.
16D/	8D\	.	16B\ 16g	.	16g/LL	.	16gg\LL	.	8d\ 8g	.	8b\ 8dd	.	8gg\	.
16D/	.	.	16B\ 16g	.	16a/	.	16aa\	.	.	.	.	.	.	.
16D/	8D\J	.	16B\ 16g	.	16b/	.	16bb\	.	8d\J 8g	.	8b\J 8dd	.	8gg\J	.
16D/JJ	.	.	16B\JJ 16g	.	16g/JJ	.	16gg\JJ	.	.	.	.	.	.	.
*Xrep	*Xrep	*	*	*	*	*	*	*	*	*	*	*	*	*
=61	=61	=61	=61	=61	=61	=61	=61	=61	=61	=61	=61	=61	=61	=61
*rep	*rep	*	*	*	*	*	*	*	*	*	*	*	*	*
16D/LL	8D\L	.	16A\LL 16f#	.	8a/L	.	8aa\L	.	8d\L 8f#	.	8a\L 8dd	.	8ff#\L	.
16D/	.	.	16A\ 16f#	.	.	.	.	.	.	.	.	.	.	.
16D/	8D\	.	16A\ 16f#	.	16d/L	.	16dd\L	.	8d\ 8f#	.	8a\ 8dd	.	8ff#\	.
16D/	.	.	16A\ 16f#	.	16c#/JJ	.	16cc#\JJ	.	.	.	.	.	.	.
16D/	8D\	.	16A\ 16f#	.	16d/LL	.	16dd\LL	.	8d\ 8f#	.	8a\ 8dd	.	8ff#\	.
16D/	.	.	16A\ 16f#	.	16e/	.	16ee\	.	.	.	.	.	.	.
16D/	8D\J	.	16A\ 16f#	.	16f#/	.	16ff#\	.	8d\J 8f#	.	8a\J 8dd	.	8ff#\J	.
16D/JJ	.	.	16A\JJ 16f#	.	16e/JJ	.	16ee\JJ	.	.	.	.	.	.	.
*Xrep	*Xrep	*	*	*	*	*	*	*	*	*	*	*	*	*
=62	=62	=62	=62	=62	=62	=62	=62	=62	=62	=62	=62	=62	=62	=62
16BB/LL	8BB\L	.	16d\LL 16f#	.	16d/LL	.	16dd\LL	.	8d\L 8f#	.	8b\L 8dd	.	8ff#\L	.
16BB/	.	.	16d\ 16f#	.	16c#/	.	16cc#\	.	.	.	.	.	.	.
16BB/	8BB\	.	16d\ 16f#	.	16d/	.	16dd\	.	8d\ 8f#	.	8b\ 8dd	.	8ff#\	.
16BB/	.	.	16d\ 16f#	.	16c#/JJ	.	16cc#\JJ	.	.	.	.	.	.	.
16BB/	8BB\	.	16d\ 16f#	.	16d/LL	.	16dd\LL	.	8d\ 8f#	.	8b\ 8dd	.	8ff#\	.
16BB/	.	.	16d\ 16f#	.	16e/	.	16ee\	.	.	.	.	.	.	.
16BB/	8BB\J	.	16d\ 16f#	.	16f#/	.	16ff#\	.	8d\J 8f#	.	8b\J 8dd	.	8ff#\J	.
16BB/JJ	.	.	16d\JJ 16f#	.	16e/JJ	.	16ee\JJ	.	.	.	.	.	.	.
*	*	*	*	*	*	*	*	*	*Xtremolo	*	*	*	*	*
!!LO:PB:g=original
=63	=63	=63	=63	=63	=63	=63	=63	=63	=63	=63	=63	=63	=63	=63
*	*	*	*	*	*	*	*	*	*^	*	*	*	*	*
*	*	*	*	*	*	*	*	*	*tremolo	*tremolo	*	*	*	*	*
16E/LL	8E\L	.	16B\LL 16g#X	.	16d/LL	.	16dd\LL	.	8e/L	8e\L	.	8b\L 8dd	.	8gg#X\L	.
16E/	.	.	16B\ 16g#	.	16e/	.	16ee\	.	.	.	.	.	.	.	.
16E/	8E\	.	16B\ 16g#	.	16f#/	.	16ff#\	.	8e/	8e\	.	8b\ 8dd	.	8gg#\	.
16E/	.	.	16B\ 16g#	.	16e/JJ	.	16ee\JJ	.	.	.	.	.	.	.	.
16E/	8E\	.	16B\ 16g#	.	16d/LL	.	16dd\LL	.	8e/	8e\	.	8b\ 8dd	.	8gg#\	.
16E/	.	.	16B\ 16g#	.	16c#/	.	16cc#\	.	.	.	.	.	.	.	.
16E/	8E\J	.	16B\ 16g#	.	16B/	.	16b\	.	8e/J	8e\J	.	8b\J 8dd	.	8gg#\J	.
16E/JJ	.	.	16B\JJ 16g#	.	16A/JJ	.	16a\JJ	.	.	.	.	.	.	.	.
=64	=64	=64	=64	=64	=64	=64	=64	=64	=64	=64	=64	=64	=64	=64	=64
*rep	*rep	*	*	*	*	*	*	*	*rep	*rep	*	*rep	*	*rep	*
16E/LL	8E\L	.	16d\LL 16e	.	16G#X/LL	.	16g#X\LL	.	8e/L	8e\L	.	8b\L 8dd	.	8gg#X\L	.
16E/	.	.	16d\ 16e	.	16A/	.	16a\	.	.	.	.	.	.	.	.
16E/	8E\	.	16d\ 16e	.	16B/	.	16b\	.	8e/	8e\	.	8b\ 8dd	.	8gg#\	.
16E/	.	.	16d\ 16e	.	16c#/JJ	.	16cc#\JJ	.	.	.	.	.	.	.	.
16E/	8E\	.	16d\ 16e	.	16d/LL	.	16dd\LL	.	8e/	8e\	.	8b\ 8dd	.	8gg#\	.
16E/	.	.	16d\ 16e	.	16e/	.	16ee\	.	.	.	.	.	.	.	.
16E/	8E\J	.	16d\ 16e	.	16f#/	.	16ff#\	.	8e/J	8e\J	.	8b\J 8dd	.	8gg#\J	.
16E/JJ	.	.	16d\JJ 16e	.	16g#X/JJ	.	16gg#X\JJ	.	.	.	.	.	.	.	.
*Xrep	*Xrep	*	*	*	*	*	*	*	*Xrep	*Xrep	*	*Xrep	*	*	*
*	*	*	*	*	*	*	*	*	*	*	*	*Xtremolo	*	*Xrep	*
=65	=65	=65	=65	=65	=65	=65	=65	=65	=65	=65	=65	=65	=65	=65	=65
*rep	*rep	*	*	*	*tremolo	*	*tremolo	*	*rep	*rep	*	*	*	*	*
16E/LL	8E\L	.	16c#\LL 16a	.	16a/LL	.	16aa\LL	.	8e/L	8e\L	.	8a\L 8cc#	.	8aa\L	.
16E/	.	.	16c#\ 16a	.	16a/	.	16aa\	.	.	.	.	.	.	.	.
16E/	8E\	.	16c#\ 16a	.	16a/	.	16aa\	.	8e/	8e\	.	8a\ 8cc#	.	8aa\	.
16E/	.	.	16c#\JJ 16a	.	16a/JJ	.	16aa\	.	.	.	.	.	.	.	.
16E/	8E\	.	16f#\LL	.	16dd#X\LL	.	16aa\	.	8e/	8e\	.	8b\ 8dd#X	.	8aa\	.
16E/	.	.	16f#\	.	16dd#\	.	16aa\	.	.	.	.	.	.	.	.
16E/	8E\J	.	16f#\	.	16dd#\	.	16aa\	.	8e/J	8e\J	.	8b\J 8dd#	.	8aa\J	.
16E/JJ	.	.	16f#\JJ	.	16dd#\JJ	.	16aa\JJ	.	.	.	.	.	.	.	.
*Xrep	*Xrep	*	*	*	*	*	*	*	*Xrep	*Xrep	*	*	*	*Xtremolo	*
=66	=66	=66	=66	=66	=66	=66	=66	=66	=66	=66	=66	=66	=66	=66	=66
*rep	*rep	*	*	*	*	*	*	*	*rep	*rep	*	*	*	*	*
16E/LL	8E\L	.	16e\LL	.	16ee\LL	.	16gg#X\LL	.	8e/L	8e\L	.	8b\L 8ee	.	8gg#X\L	.
16E/	.	.	16e\	.	16ee\	.	16gg#\	.	.	.	.	.	.	.	.
16E/	8E\	.	16e\	.	16ee\	.	16gg#\	.	8e/	8e\	.	8b\ 8ee	.	8gg#\	.
16E/	.	.	16e\JJ	.	16ee\JJ	.	16gg#\JJ	.	.	.	.	.	.	.	.
16E/	8E\	.	16e\LL	.	16cc#\LL	.	16aa\LL	.	8e/	8e\	.	8cc#\ 8ee	.	8aa\	.
16E/	.	.	16e\	.	16cc#\	.	16aa\	.	.	.	.	.	.	.	.
16E/	8E\J	.	16e\	.	16cc#\	.	16aa\	.	8e/J	8e\J	.	8cc#\J 8ee	.	8aa\J	.
16E/JJ	.	.	16e\JJ	.	16cc#\JJ	.	16aa\JJ	.	.	.	.	.	.	.	.
*Xrep	*Xrep	*	*Xtremolo	*	*Xtremolo	*	*Xtremolo	*	*Xrep	*Xrep	*	*	*	*	*
=67	=67	=67	=67	=67	=67	=67	=67	=67	=67	=67	=67	=67	=67	=67	=67
*Xtremolo	*Xtremolo	*	*	*	*	*	*	*	*Xtremolo	*Xtremolo	*	*	*	*	*
8E/	8E\	.	8e\	.	8b\	.	8gg#X\L	.	8e/	8e\	.	8b\ 8ee	.	8gg#X\	.
8r	8ryy	.	8r	.	8r	.	16ee\L	.	8r	8ryy	.	8r	.	8r	.
.	.	.	.	.	.	.	16ff#\JJ	.	.	.	.	.	.	.	.
4r	4ryy	.	8d\	.	4r	.	8dd\L	.	4r	4ryy	.	4r	.	4r	.
.	.	.	8r	.	.	.	16dd\L	.	.	.	.	.	.	.	.
.	.	.	.	.	.	.	16ee\JJ	.	.	.	.	.	.	.	.
*v	*v	*	*	*	*	*	*	*	*v	*v	*	*	*	*	*
!	!	!	!	!	!	!	!	!	!	!	!	!LO:TX:a:t=8.	!
=68	=68	=68	=68	=68	=68	=68	=68	=68	=68	=68	=68	=68	=68
2r	.	8c#\	.	2r	.	8cc#\L	.	2r	.	2r	.	2r	.
.	.	8r	.	.	.	16cc#\L	.	.	.	.	.	.	.
.	.	.	.	.	.	16dd\JJ	.	.	.	.	.	.	.
.	.	8B/	.	.	.	8b\L	.	.	.	.	.	.	.
.	.	8r	.	.	.	16b\L	.	.	.	.	.	.	.
.	.	.	.	.	.	16cc#\JJ	.	.	.	.	.	.	.
!	!	!	!	!LO:TX:a:t=2.	!	!	!	!	!	!	!	!	!
=69	=69	=69	=69	=69	=69	=69	=69	=69	=69	=69	=69	=69	=69
8AA/	p	8A|/L	p	8c#|/L	p	8a/	.	2r	.	2r	.	2r	.
8r	.	8c#|/	.	8e|/	.	8r	.	.	.	.	.	.	.
8AA/	.	8A|/	.	8c#|/	.	4r	.	.	.	.	.	.	.
8r	.	8c#|/J	.	8e|/J	.	.	.	.	.	.	.	.	.
!	!	!	!	!	!	!LO:TX:a:t=2.	!	!	!	!	!	!	!
=70	=70	=70	=70	=70	=70	=70	=70	=70	=70	=70	=70	=70	=70
*rep	*	*	*	*	*	*	*	*	*	*	*	*	*
8AA/	.	8A|/L	.	8A|/L	.	8c#|/L	p	2r	.	2r	.	2r	.
8r	.	8E|/	.	8c#|/	.	8e|/	.	.	.	.	.	.	.
8AA/	.	8A|/	.	8A|/	.	8c#|/	.	.	.	.	.	.	.
8r	.	8E|/J	.	8c#|/J	.	8e|/J	.	.	.	.	.	.	.
*Xrep	*	*	*	*	*	*	*	*	*	*	*	*	*
=71	=71	=71	=71	=71	=71	=71	=71	=71	=71	=71	=71	=71	=71
*	*	*	*	*	*	*	*	*	*	*^	*	*	*
*rep	*	*rep	*	*rep	*	*rep	*	*	*	*	*	*	*	*
!	!	!	!	!	!	!	!	!	!	!LO:TX:a:t=Clar&colon; 1.	!	!	!	!
8AA/	.	8A|/L	.	8A|/L	.	8c#|/L	.	2r	.	4.a/	2r	p	4.aa\	p
8r	.	8E|/	.	8c#|/	.	8e|/	.	.	.	.	.	.	.	.
8AA/	.	8A|/	.	8A|/	.	8c#|/	.	.	.	.	.	.	.	.
8r	.	8E|/J	.	8c#|/J	.	8e|/J	.	.	.	16b/LL	.	.	16bb\LL	.
.	.	.	.	.	.	.	.	.	.	16a/JJ	.	.	16aa\JJ	.
*Xrep	*	*Xrep	*	*Xrep	*	*Xrep	*	*	*	*	*	*	*	*
=72	=72	=72	=72	=72	=72	=72	=72	=72	=72	=72	=72	=72	=72	=72
*rep	*	*rep	*	*rep	*	*rep	*	*	*	*	*	*	*	*
8AA/	.	8A|/L	.	8A|/L	.	8c#|/L	.	2r	.	8g#/L	2r	.	8gg#X\L	.
8r	.	8E|/	.	8c#|/	.	8e|/	.	.	.	8a/	.	.	8aa\	.
8AA/	.	8A|/	.	8A|/	.	8c#|/	.	.	.	8b/	.	.	8bb\	.
8r	.	8E|/J	.	8c#|/J	.	8e|/J	.	.	.	8cc#/J	.	.	8ccc#\J	.
*Xrep	*	*Xrep	*	*Xrep	*	*Xrep	*	*	*	*	*	*	*	*
=73	=73	=73	=73	=73	=73	=73	=73	=73	=73	=73	=73	=73	=73	=73
*	*	*tremolo	*	*tremolo	*	*tremolo	*	*	*	*	*	*	*	*
8D\	.	8B|/L	.	8B|/L	.	8d|/L	.	2r	.	4dd/	2r	.	4ddd\	.
8r	.	8F#|/	.	8d|/	.	8f#|/	.	.	.	.	.	.	.	.
8D\	.	8B|/	.	8B|/	.	8d|/	.	.	.	4f#/	.	.	4ff#\	.
8r	.	8F#|/J	.	8d|/J	.	8f#|/J	.	.	.	.	.	.	.	.
=74	=74	=74	=74	=74	=74	=74	=74	=74	=74	=74	=74	=74	=74	=74
*rep	*	*rep	*	*rep	*	*rep	*	*	*	*	*	*	*	*
8D\	.	8B|/L	.	8B|/L	.	8d|/L	.	2r	.	4.b/	2r	.	4.bb\	.
8r	.	8F#|/	.	8d|/	.	8f#|/	.	.	.	.	.	.	.	.
8D\	.	8B|/	.	8B|/	.	8d|/	.	.	.	.	.	.	.	.
8r	.	8F#|/J	.	8d|/J	.	8f#|/J	.	.	.	8a/	.	.	8aa\	.
*Xrep	*	*Xrep	*	*Xrep	*	*Xrep	*	*	*	*	*	*	*	*
=75	=75	=75	=75	=75	=75	=75	=75	=75	=75	=75	=75	=75	=75	=75
*	*	*	*	*rep	*	*	*	*	*	*	*	*	*	*
8E\	.	8B/L	.	8B|/L	.	8d/L	.	2r	.	8a/L	2r	.	8aa\L	.
8r	.	8E/	.	8d|/	.	8g#X/	.	.	.	8g#/	.	.	8gg#X\	.
8E\	.	8B/	.	8B|/	.	8d/	.	.	.	8f#/	.	.	8ff#\	.
8r	.	8E/J	.	8d|/J	.	8g#X/J	.	.	.	8e/J	.	.	8ee\J	.
*	*	*	*	*Xrep	*	*	*	*	*	*	*	*	*	*
=76	=76	=76	=76	=76	=76	=76	=76	=76	=76	=76	=76	=76	=76	=76
*rep	*	*rep	*	*	*	*	*	*	*	*	*	*	*	*
8E\	.	8B/L	.	8B/L	.	8d/L	.	2r	.	8d#X/L	2r	.	8dd#X\L	.
8r	.	8E/	.	8e/	.	8e/	.	.	.	8e/	.	.	8ee\	.
8E\	.	8B/	.	8B/	.	8d/	.	.	.	8f#/	.	.	8ff#\	.
8r	.	8E/J	.	8e/J	.	8e/J	.	.	.	8g#/J	.	.	8gg#X\J	.
*Xrep	*	*Xrep	*	*	*	*	*	*	*	*	*	*	*	*
*	*	*Xtremolo	*	*Xtremolo	*	*Xtremolo	*	*	*	*	*	*	*	*
=77	=77	=77	=77	=77	=77	=77	=77	=77	=77	=77	=77	=77	=77	=77
8A\	.	8A/L	.	8A/L	.	8c#/L	.	2r	.	4a/	2r	.	4aa\	.
8r	.	8E/	.	8c#/	.	8e/	.	.	.	.	.	.	.	.
8E\	.	8B/	.	8G#X/	.	8B/	.	.	.	4b/	.	.	4bb\	.
8r	.	8E/J	.	8e/J	.	8e/J	.	.	.	.	.	.	.	.
=78	=78	=78	=78	=78	=78	=78	=78	=78	=78	=78	=78	=78	=78	=78
*	*	*tremolo	*	*tremolo	*	*tremolo	*	*	*	*	*	*	*	*
8AA/	.	8A/L	.	8A/L	.	8c#/L	.	2r	.	8cc#/	2r	.	8ccc#\	.
8r	.	8E/	.	8c#/	.	8e/	.	.	.	8r	.	.	8r	.
8AA/	.	8A/	.	8A/	.	8c#/	.	.	.	8ee/L	.	.	8eee\L	.
8r	.	8E/J	.	8c#/J	.	8e/J	.	.	.	8ee/J	.	.	8eee\J	.
=79	=79	=79	=79	=79	=79	=79	=79	=79	=79	=79	=79	=79	=79	=79
*	*	*rep	*	*	*	*	*	*	*	*	*	*	*	*
8C#/	.	8A/L	.	8A/L	.	8e/L	.	2r	.	4.ee/	2r	.	4.eee\	.
8r	.	8E/	.	8e/	.	8a/	.	.	.	.	.	.	.	.
8C#/	.	8A/	.	8A/	.	8e/	.	.	.	.	.	.	.	.
8r	.	8E/J	.	8e/J	.	8a/J	.	.	.	8cc#/	.	.	8ccc#\	.
*	*	*Xrep	*	*	*	*	*	*	*	*	*	*	*	*
!	!	!	!	!	!	!	!	!	!	!	!	!	!LO:TX:a:t=9.	!
!!LO:LB:g=original
=80	=80	=80	=80	=80	=80	=80	=80	=80	=80	=80	=80	=80	=80	=80
*rep	*	*rep	*	*rep	*	*rep	*	*	*	*	*	*	*	*
8C#/	.	8A/L	.	8A/L	.	8e/L	.	2r	.	4a/	2r	.	4aa\	.
8r	.	8E/	.	8e/	.	8a/	.	.	.	.	.	.	.	.
8C#/	.	8A/	.	8A/	.	8e/	.	.	.	8b/L	.	.	8bb\L	.
8r	.	8E/J	.	8e/J	.	8a/J	.	.	.	8cc#/J	.	.	8ccc#\J	.
*Xrep	*	*Xrep	*	*Xrep	*	*Xrep	*	*	*	*	*	*	*	*
*	*	*Xtremolo	*	*	*	*	*	*	*	*	*	*	*	*
=81	=81	=81	=81	=81	=81	=81	=81	=81	=81	=81	=81	=81	=81	=81
8D/	.	8A/L	.	8d/L	.	8f#/L	.	2r	.	2dd/	2r	.	2ddd\	.
8r	.	8F#/	.	8f#/	.	8a/	.	.	.	.	.	.	.	.
8D/	.	8d/	.	8d/	.	8f#/	.	.	.	.	.	.	.	.
8r	.	8A/J	.	8f#/J	.	8a/J	.	.	.	.	.	.	.	.
=82	=82	=82	=82	=82	=82	=82	=82	=82	=82	=82	=82	=82	=82	=82
*rep	*	*tremolo	*	*	*	*	*	*	*	*	*	*	*	*
8D/	.	8d/L	.	8d/L	.	8f#/L	.	2r	.	4d/	2r	.	4dd\	.
8r	.	8B/	.	8f#/	.	8b/	.	.	.	.	.	.	.	.
8D/	.	8d/	.	8d/	.	8f#/	.	.	.	8dd/L	.	.	8ddd\L	.
8r	.	8B/J	.	8f#/J	.	8b/J	.	.	.	8dd/J	.	.	8ddd\J	.
*Xrep	*	*	*	*	*	*	*	*	*	*	*	*	*	*
=83	=83	=83	=83	=83	=83	=83	=83	=83	=83	=83	=83	=83	=83	=83
8E\	.	8c#/L	.	8c#/L	.	8e/L	.	2r	.	4cc#/	2r	.	4ccc#\	.
8r	.	8A/	.	8e/	.	8a/	.	.	.	.	.	.	.	.
8E\	.	8c#/	.	8c#/	.	8e/	.	.	.	4cc#/	.	.	4ccc#\	.
8r	.	8A/J	.	8e/J	.	8a/J	.	.	.	.	.	.	.	.
=84	=84	=84	=84	=84	=84	=84	=84	=84	=84	=84	=84	=84	=84	=84
*rep	*	*	*	*	*	*	*	*	*	*	*	*	*	*
8E\	.	8G#X/L	.	8B/L	.	8e/L	.	2r	.	4.b/	2r	.	4.bb\	.
8r	.	8B/	.	8e/	.	8g#X/	.	.	.	.	.	.	.	.
8E\	.	8G#X/	.	8B/	.	8e/	.	.	.	.	.	.	.	.
8r	.	8B/J	.	8e/J	.	8g#X/J	.	.	.	8ee/	.	.	8eee\	.
*Xrep	*	*	*	*	*	*	*	*	*	*	*	*	*	*
=85	=85	=85	=85	=85	=85	=85	=85	=85	=85	=85	=85	=85	=85	=85
8AA/	.	8A/L	.	8c#/L	.	8e/L	.	2r	.	4cc#/	2r	.	4ccc#\	.
8r	.	8c#/	.	8e/	.	8a/	.	.	.	.	.	.	.	.
8AA/	.	8A/	.	8c#/	.	8e/	.	.	.	4r	.	.	4r	.
8r	.	8c#/J	.	8e/J	.	8a/J	.	.	.	.	.	.	.	.
=86	=86	=86	=86	=86	=86	=86	=86	=86	=86	=86	=86	=86	=86	=86
8D\	.	8A/L	.	8d/L	.	8f#/L	.	2r	.	4r	2r	.	4r	.
8r	.	8d/	.	8f#/	.	8a/	.	.	.	.	.	.	.	.
8D\	.	8A/	.	8d/	.	8f#/	.	.	.	8ff#/L	.	.	8fff#\L	.
8r	.	8d/J	.	8f#/J	.	8a/J	.	.	.	8ff#/J	.	.	8fff#\J	.
=87	=87	=87	=87	=87	=87	=87	=87	=87	=87	=87	=87	=87	=87	=87
8E\	.	8A/L	.	8c#/L	.	8e/L	.	2r	.	4ee/	2r	.	4eee\	.
8r	.	8c#/	.	8e/	.	8a/	.	.	.	.	.	.	.	.
8E\	.	8A/	.	8c#/	.	8e/	.	.	.	4cc#/	.	.	4ccc#\	.
8r	.	8c#/J	.	8e/J	.	8a/J	.	.	.	.	.	.	.	.
=88	=88	=88	=88	=88	=88	=88	=88	=88	=88	=88	=88	=88	=88	=88
8E\	.	8G#X/L	.	8B/L	.	8e/L	.	2r	.	4b/	2r	.	4bb\	.
8r	.	8B/	.	8e/	.	8g#X/	.	.	.	.	.	.	.	.
8E\	.	8G#X/	.	8B/	.	8e/	.	.	.	4ee/	.	.	4eee\	.
8r	.	8B/J	.	8e/J	.	8g#X/J	.	.	.	.	.	.	.	.
*	*	*	*	*Xtremolo	*	*Xtremolo	*	*	*	*	*	*	*	*
!	!	!LO:TX:a:t=2	!	!	!	!	!	!	!	!	!	!	!	!
=89	=89	=89	=89	=89	=89	=89	=89	=89	=89	=89	=89	=89	=89	=89
4AA/	.	(8A/L	.	(8c#/L	.	4a/	.	2r	.	4a/	2r	.	4aa\	.
.	.	8e/	.	8e/	.	.	.	.	.	.	.	.	.	.
4r	.	8A/	.	8c#/	.	4r	.	.	.	4r	.	.	4r	.
.	.	8e/J)	.	8e/J)	.	.	.	.	.	.	.	.	.	.
*	*	*	*	*	*	*	*	*	*	*v	*v	*	*	*
!LO:TX:a:t=2	!	!	!	!	!	!	!	!	!	!	!	!LO:TX:a:t=10.	!
=90	=90	=90	=90	=90	=90	=90	=90	=90	=90	=90	=90	=90	=90
*	*	*rep	*	*tremolo	*	*	*	*	*	*	*	*	*
4AA/	.	(8A/L	.	(8c#/L	.	4r	.	2r	.	2r	.	2r	.
.	.	8e/	.	8e/	.	.	.	.	.	.	.	.	.
4r	.	8A/	.	8c#/	.	8r	.	.	.	.	.	.	.
.	.	8e/J)	.	8e/J)	.	8cc#\	.	.	.	.	.	.	.
*	*	*Xrep	*	*	*	*	*	*	*	*	*	*	*
=91	=91	=91	=91	=91	=91	=91	=91	=91	=91	=91	=91	=91	=91
4E\	.	(8G#X\L	.	(8B/L	.	4.b\	.	2r	.	2r	.	2r	.
.	.	8e\	.	8e/	.	.	.	.	.	.	.	.	.
4r	.	8G#\	.	8B/	.	.	.	.	.	.	.	.	.
.	.	8e\J)	.	8e/J)	.	8b\	.	.	.	.	.	.	.
=92	=92	=92	=92	=92	=92	=92	=92	=92	=92	=92	=92	=92	=92
*rep	*	*rep	*	*rep	*	*	*	*	*	*	*	*	*
4E\	.	(8G#X\L	.	(8B/L	.	8b\L	.	2r	.	2r	.	2r	.
.	.	8e\	.	8e/	.	8gg#X\	.	.	.	.	.	.	.
4r	.	8G#\	.	8B/	.	8ff#\	.	.	.	.	.	.	.
.	.	8e\J)	.	8e/J)	.	8ee\J	.	.	.	.	.	.	.
*Xrep	*	*Xrep	*	*Xrep	*	*	*	*	*	*	*	*	*
=93	=93	=93	=93	=93	=93	=93	=93	=93	=93	=93	=93	=93	=93
!	!	!LO:TX:t=P:problem:mixed beam	!	!	!	!	!	!	!	!	!	!	!
4F#\	.	(8F#/L	.	(8A/L	.	2ee\	.	2r	.	2r	.	2r	.
.	.	8d#X\	.	8d#X/	.	.	.	.	.	.	.	.	.
4r	.	8F#/	.	8A/	.	.	.	.	.	.	.	.	.
.	.	8d#\J)	.	8d#/J)	.	.	.	.	.	.	.	.	.
=94	=94	=94	=94	=94	=94	=94	=94	=94	=94	=94	=94	=94	=94
*rep	*	*rep	*	*rep	*	*	*	*	*	*	*	*	*
!	!	!LO:TX:t=P:problem:mixed beam	!	!	!	!	!	!	!	!	!	!	!
4F#\	.	(8F#/L	.	(8A/L	.	4dd#X\	.	2r	.	2r	.	2r	.
.	.	8d#X\	.	8d#X/	.	.	.	.	.	.	.	.	.
4r	.	8F#/	.	8A/	.	4ff#\	.	.	.	.	.	.	.
.	.	8d#X\J)	.	8d#/J)	.	.	.	.	.	.	.	.	.
*Xrep	*	*Xrep	*	*Xrep	*	*	*	*	*	*	*	*	*
=95	=95	=95	=95	=95	=95	=95	=95	=95	=95	=95	=95	=95	=95
4BB/	.	(8A\L	.	(8d#X/L	.	4ff#\	.	2r	.	2r	.	2r	.
.	.	8f#\	.	8f#/	.	.	.	.	.	.	.	.	.
4r	.	8A\	.	8d#X/	.	4dd#X\	.	.	.	.	.	.	.
.	.	8f#\J)	.	8f#/J)	.	.	.	.	.	.	.	.	.
=96	=96	=96	=96	=96	=96	=96	=96	=96	=96	=96	=96	=96	=96
*rep	*	*rep	*	*rep	*	*	*	*	*	*	*	*	*
4BB/	.	(8A\L	.	(8d#X/L	.	4.b/	.	2r	.	2r	.	2r	.
.	.	8f#\	.	8f#/	.	.	.	.	.	.	.	.	.
4r	.	8A\	.	8d#/	.	.	.	.	.	.	.	.	.
.	.	8f#\J)	.	8f#/J)	.	8a/	.	.	.	.	.	.	.
*Xrep	*	*Xrep	*	*Xrep	*	*	*	*	*	*	*	*	*
=97	=97	=97	=97	=97	=97	=97	=97	=97	=97	=97	=97	=97	=97
4E\	.	(8B\L	.	(8e/L	.	4g#X/	.	2r	.	2r	.	2r	.
.	.	8g#X\	.	8g#X/	.	.	.	.	.	.	.	.	.
!LO:TX:b:t=VS.	!	!	!	!	!	!	!	!	!	!	!	!	!
4r	.	8B\	.	8e/	.	4r	.	.	.	.	.	.	.
.	.	8g#X\J)	.	8g#X/J)	.	.	.	.	.	.	.	.	.
!!LO:PB:g=original
=98	=98	=98	=98	=98	=98	=98	=98	=98	=98	=98	=98	=98	=98
4D\	.	(8B/L	.	(8e/L	.	4r	.	2r	.	2r	.	2r	.
.	.	8g#X/	.	8g#X/	.	.	.	.	.	.	.	.	.
4r	.	8B/	.	8e/	.	4ee\	.	.	.	.	.	.	.
.	.	8g#X/J)	.	8g#X/J)	.	.	.	.	.	.	.	.	.
=99	=99	=99	=99	=99	=99	=99	=99	=99	=99	=99	=99	=99	=99
4C#/	.	(8A/L	.	(8e/L	.	4.ee\	.	2r	.	2r	.	2r	.
.	.	8e/	.	8a/	.	.	.	.	.	.	.	.	.
4r	.	8A/	.	8e/	.	.	.	.	.	.	.	.	.
.	.	8e/J)	.	8a/J)	.	8cc#\	.	.	.	.	.	.	.
!	!	!	!	!	!	!	!	!	!	!	!	!LO:TX:a:t=11.	!
=100	=100	=100	=100	=100	=100	=100	=100	=100	=100	=100	=100	=100	=100
*	*	*rep	*	*rep	*	*	*	*	*	*	*	*	*
4C#/	.	(8A/L	.	(8e/L	.	4a/	.	2r	.	2r	.	2r	.
.	.	8e/	.	8a/	.	.	.	.	.	.	.	.	.
4r	.	8A/	.	8e/	.	4a/	.	.	.	.	.	.	.
.	.	8e/J)	.	8a/J)	.	.	.	.	.	.	.	.	.
*	*	*Xrep	*	*Xrep	*	*	*	*	*	*	*	*	*
=101	=101	=101	=101	=101	=101	=101	=101	=101	=101	=101	=101	=101	=101
4D/	.	(8A/L	.	(8f#/L	.	2ff#\	.	2r	.	2r	.	2r	.
.	.	8f#/	.	8a/	.	.	.	.	.	.	.	.	.
4r	.	8A/	.	8f#/	.	.	.	.	.	.	.	.	.
.	.	8f#/J)	.	8a/J)	.	.	.	.	.	.	.	.	.
=102	=102	=102	=102	=102	=102	=102	=102	=102	=102	=102	=102	=102	=102
4BB/	.	(8B/L	.	(8d/L	.	8dd\	.	2r	.	2r	.	2r	.
.	.	8d/	.	8f#/	.	8r	.	.	.	.	.	.	.
4r	.	8B/	.	8d/	.	4ff#\	.	.	.	.	.	.	.
.	.	8d/J)	.	8f#/J)	.	.	.	.	.	.	.	.	.
=103	=103	=103	=103	=103	=103	=103	=103	=103	=103	=103	=103	=103	=103
4E\	.	(8c#\L	.	(8e/L	.	4ee\	.	2r	.	2r	.	2r	.
.	.	8a\	.	8a/	.	.	.	.	.	.	.	.	.
4r	.	8c#\	.	8e/	.	4cc#\	.	.	.	.	.	.	.
.	.	8a\J)	.	8a/J)	.	.	.	.	.	.	.	.	.
=104	=104	=104	=104	=104	=104	=104	=104	=104	=104	=104	=104	=104	=104
4E\	.	(8B\L	.	(8e/L	.	4.b\	.	2r	.	2r	.	2r	.
.	.	8g#X\	.	8g#X/	.	.	.	.	.	.	.	.	.
4r	.	8B\	.	8e/	.	.	.	.	.	.	.	.	.
.	.	8g#X\J)	.	8g#X/J)	.	8ee\	.	.	.	.	.	.	.
=105	=105	=105	=105	=105	=105	=105	=105	=105	=105	=105	=105	=105	=105
4A\	.	(8c#\L	.	(8e/L	.	4cc#\	.	2r	.	2r	.	2r	.
.	.	8a\	.	8a/	.	.	.	.	.	.	.	.	.
4r	.	8c#\	.	8e/	.	4r	.	.	.	.	.	.	.
.	.	8a\J)	.	8a/J)	.	.	.	.	.	.	.	.	.
=106	=106	=106	=106	=106	=106	=106	=106	=106	=106	=106	=106	=106	=106
4D/	.	(8d\L	.	(8f#/L	.	4r	.	2r	.	2r	.	2r	.
.	.	8f#\	.	8a/	.	.	.	.	.	.	.	.	.
4r	.	8d\	.	8f#/	.	8aa\L	.	.	.	.	.	.	.
.	.	8f#\J)	.	8a/J)	.	8ff#\J	.	.	.	.	.	.	.
=107	=107	=107	=107	=107	=107	=107	=107	=107	=107	=107	=107	=107	=107
4E\	.	(8c#\L	.	(8e/L	.	4.ee\	.	2r	.	2r	.	2r	.
.	.	8a\	.	8a/	.	.	.	.	.	.	.	.	.
4r	.	8c#\	.	8e/	.	.	.	.	.	.	.	.	.
.	.	8a\J)	.	8a/J)	.	8cc#\	.	.	.	.	.	.	.
=108	=108	=108	=108	=108	=108	=108	=108	=108	=108	=108	=108	=108	=108
!	!	!	!	!	!	!	!	!	!	!LO:TX:a:t=2	!	!	!
4E\	.	(8B\L	.	(8e/L	.	8ee\L	.	2r	.	2r	.	2r	.
.	.	8g#X\	.	8g#X/	.	8dd\	.	.	.	.	.	.	.
4r	.	8B\	.	8e/	.	8cc#\	.	.	.	.	.	.	.
.	.	8g#X\J)	.	8g#X/J)	.	8b\J	.	.	.	.	.	.	.
*	*	*Xtremolo	*	*Xtremolo	*	*	*	*	*	*	*	*	*
=109	=109	=109	=109	=109	=109	=109	=109	=109	=109	=109	=109	=109	=109
*	*	*	*	*tremolo	*	*tremolo	*	*	*	*	*	*	*
!	!LO:DY:rj	!	!LO:DY:rj	!	!LO:DY:rj	!	!LO:DY:rj	!	!LO:DY:rj	!	!LO:DY:rj	!LO:TX:a:t=12	!LO:DY:rj
4.A\	ff	4.a\	ff	16a\LL 16ee	ff	16cc#\LL 16aa	ff	8A\L 8e	ff	8cc#\L 8ee	ff	8aa\L	ff
.	.	.	.	16a\ 16ee	.	16cc#\ 16aa	.	.	.	.	.	.	.
.	.	.	.	16a\ 16ee	.	16cc#\ 16aa	.	16A\L 16e	.	16cc#\L 16ee	.	16aa\L	.
.	.	.	.	16a\ 16ee	.	16cc#\ 16aa	.	16A\J 16e	.	16cc#\J 16ee	.	16aa\J	.
.	.	.	.	16a\ 16ee	.	16cc#\ 16aa	.	8A\ 8e	.	8cc#\ 8ee	.	8aa\	.
.	.	.	.	16a\ 16ee	.	16cc#\ 16aa	.	.	.	.	.	.	.
8G#X\	.	8g#X\	.	16a\ 16ee	.	16cc#\ 16aa	.	8A\J 8e	.	8cc#\J 8ee	.	8aa\J	.
.	.	.	.	16a\JJ 16ee	.	16cc#\JJ 16aa	.	.	.	.	.	.	.
=110	=110	=110	=110	=110	=110	=110	=110	=110	=110	=110	=110	=110	=110
*	*	*	*	*	*	*rep	*	*	*	*	*	*rep	*
4.F#\	.	4.f#\	.	16a\LL 16ff#	.	16cc#\LL 16aa	.	8A\L 8f#	.	8cc#\L 8ff#	.	8aa\L	.
.	.	.	.	16a\ 16ff#	.	16cc#\ 16aa	.	.	.	.	.	.	.
.	.	.	.	16a\ 16ff#	.	16cc#\ 16aa	.	16A\L 16f#	.	16cc#\L 16ff#	.	16aa\L	.
.	.	.	.	16a\ 16ff#	.	16cc#\ 16aa	.	16A\J 16f#	.	16cc#\J 16ff#	.	16aa\J	.
.	.	.	.	16a\ 16ff#	.	16cc#\ 16aa	.	8A\ 8f#	.	8cc#\ 8ff#	.	8aa\	.
.	.	.	.	16a\ 16ff#	.	16cc#\ 16aa	.	.	.	.	.	.	.
8E\	.	8e\	.	16a\ 16ff#	.	16cc#\ 16aa	.	8A\J 8f#	.	8cc#\J 8ff#	.	8aa\J	.
.	.	.	.	16a\JJ 16ff#	.	16cc#\JJ 16aa	.	.	.	.	.	.	.
*	*	*	*	*	*	*Xrep	*	*	*	*	*	*Xrep	*
=111	=111	=111	=111	=111	=111	=111	=111	=111	=111	=111	=111	=111	=111
4D/	.	4d\	.	16dd\LL 16ff#	.	16dd\LL 16bb	.	8d\L 8f#	.	8dd\L 8ff#	.	8bb\L	.
.	.	.	.	16dd\ 16ff#	.	16dd\ 16bb	.	.	.	.	.	.	.
.	.	.	.	16dd\ 16ff#	.	16dd\ 16bb	.	16d\L 16f#	.	16dd\L 16ff#	.	16bb\L	.
.	.	.	.	16dd\ 16ff#	.	16dd\ 16bb	.	16d\J 16f#	.	16dd\J 16ff#	.	16bb\J	.
4BB/	.	4B/	.	16dd\ 16ff#	.	16dd\ 16bb	.	8d\ 8f#	.	8dd\ 8ff#	.	8bb\	.
.	.	.	.	16dd\ 16ff#	.	16dd\ 16bb	.	.	.	.	.	.	.
.	.	.	.	16dd\ 16ff#	.	16dd\ 16bb	.	8d\J 8f#	.	8dd\J 8ff#	.	8bb\J	.
.	.	.	.	16dd\JJ 16ff#	.	16dd\JJ 16bb	.	.	.	.	.	.	.
=112	=112	=112	=112	=112	=112	=112	=112	=112	=112	=112	=112	=112	=112
*	*	*	*	*	*	*	*	*^	*	*	*	*	*
*	*	*	*	*	*	*	*	*tremolo	*tremolo	*	*tremolo	*	*tremolo	*
4E\	.	4e\	.	16g#X\LL 16ee	.	16b\LL 16gg#X	.	8e/L	8e\L	.	8b\L 8dd	.	8gg#X\L	.
.	.	.	.	16g#\ 16ee	.	16b\ 16gg#	.	.	.	.	.	.	.	.
.	.	.	.	16g#\ 16ee	.	16b\ 16gg#	.	8e/	8e\	.	8b\ 8dd	.	8gg#\	.
.	.	.	.	16g#\ 16ee	.	16b\ 16gg#	.	.	.	.	.	.	.	.
4E\	.	4e\	.	16g#\ 16ee	.	16b\ 16gg#	.	8e/	8e\	.	8b\ 8dd	.	8gg#\	.
.	.	.	.	16g#\ 16ee	.	16b\ 16gg#	.	.	.	.	.	.	.	.
.	.	.	.	16g#\ 16ee	.	16b\ 16gg#	.	8e/J	8e\J	.	8b\J 8dd	.	8gg#\J	.
.	.	.	.	16g#\JJ 16ee	.	16b\JJ 16gg#	.	.	.	.	.	.	.	.
*	*	*	*	*	*	*	*	*Xtremolo	*Xtremolo	*	*Xtremolo	*	*Xtremolo	*
*	*	*	*	*	*	*	*	*v	*v	*	*	*	*	*
=113	=113	=113	=113	=113	=113	=113	=113	=113	=113	=113	=113	=113	=113
4.A\	.	4.a\	.	16a\LL 16ee	.	16cc#\LL 16aa	.	8A\L 8e	.	8cc#\L 8ee	.	8aa\L	.
.	.	.	.	16a\ 16ee	.	16cc#\ 16aa	.	.	.	.	.	.	.
.	.	.	.	16a\ 16ee	.	16cc#\ 16aa	.	16A\L 16e	.	16cc#\L 16ee	.	16aa\L	.
.	.	.	.	16a\ 16ee	.	16cc#\ 16aa	.	16A\J 16e	.	16cc#\J 16ee	.	16aa\J	.
.	.	.	.	16a\ 16ee	.	16cc#\ 16aa	.	8A\ 8e	.	8cc#\ 8ee	.	8aa\	.
.	.	.	.	16a\ 16ee	.	16cc#\ 16aa	.	.	.	.	.	.	.
8G#X\	.	8g#X\	.	16a\ 16ee	.	16cc#\ 16aa	.	8A\J 8e	.	8cc#\J 8ee	.	8aa\J	.
.	.	.	.	16a\JJ 16ee	.	16cc#\JJ 16aa	.	.	.	.	.	.	.
=114	=114	=114	=114	=114	=114	=114	=114	=114	=114	=114	=114	=114	=114
*	*	*	*	*	*	*rep	*	*	*	*	*	*rep	*
4.F#\	.	4.f#\	.	16a\LL 16ff#	.	16cc#\LL 16aa	.	8A\L 8f#	.	8cc#\L 8ff#	.	8aa\L	.
.	.	.	.	16a\ 16ff#	.	16cc#\ 16aa	.	.	.	.	.	.	.
.	.	.	.	16a\ 16ff#	.	16cc#\ 16aa	.	16A\L 16f#	.	16cc#\L 16ff#	.	16aa\L	.
.	.	.	.	16a\ 16ff#	.	16cc#\ 16aa	.	16A\J 16f#	.	16cc#\J 16ff#	.	16aa\J	.
.	.	.	.	16a\ 16ff#	.	16cc#\ 16aa	.	8A\ 8f#	.	8cc#\ 8ff#	.	8aa\	.
.	.	.	.	16a\ 16ff#	.	16cc#\ 16aa	.	.	.	.	.	.	.
8E\	.	8e\	.	16a\ 16ff#	.	16cc#\ 16aa	.	8A\J 8f#	.	8cc#\J 8ff#	.	8aa\J	.
.	.	.	.	16a\JJ 16ff#	.	16cc#\JJ 16aa	.	.	.	.	.	.	.
*	*	*	*	*	*	*Xrep	*	*	*	*	*	*Xrep	*
=115	=115	=115	=115	=115	=115	=115	=115	=115	=115	=115	=115	=115	=115
4D/	.	4d\	.	16dd\LL 16ff#	.	16dd\LL 16bb	.	8d\L 8f#	.	8dd\L 8ff#	.	8bb\L	.
.	.	.	.	16dd\ 16ff#	.	16dd\ 16bb	.	.	.	.	.	.	.
.	.	.	.	16dd\ 16ff#	.	16dd\ 16bb	.	16d\L 16f#	.	16dd\L 16ff#	.	16bb\L	.
.	.	.	.	16dd\ 16ff#	.	16dd\ 16bb	.	16d\J 16f#	.	16dd\J 16ff#	.	16bb\J	.
4BB/	.	4B/	.	16dd\ 16ff#	.	16dd\ 16bb	.	8d\ 8f#	.	8dd\ 8ff#	.	8bb\	.
.	.	.	.	16dd\ 16ff#	.	16dd\ 16bb	.	.	.	.	.	.	.
.	.	.	.	16dd\ 16ff#	.	16dd\ 16bb	.	8d\J 8f#	.	8dd\J 8ff#	.	8bb\J	.
.	.	.	.	16dd\JJ 16ff#	.	16dd\JJ 16bb	.	.	.	.	.	.	.
!!LO:LB:g=original
=116	=116	=116	=116	=116	=116	=116	=116	=116	=116	=116	=116	=116	=116
*	*	*	*	*	*	*	*	*^	*	*	*	*	*
*	*	*	*	*	*	*	*	*tremolo	*tremolo	*	*tremolo	*	*tremolo	*
4E\	.	4e\	.	16g#X\LL 16ee	.	16b\LL 16gg#X	.	8e/L	8e\L	.	8b\L 8dd	.	8gg#X\L	.
.	.	.	.	16g#\ 16ee	.	16b\ 16gg#	.	.	.	.	.	.	.	.
.	.	.	.	16g#\ 16ee	.	16b\ 16gg#	.	8e/	8e\	.	8b\ 8dd	.	8gg#\	.
.	.	.	.	16g#\ 16ee	.	16b\ 16gg#	.	.	.	.	.	.	.	.
4E\	.	4e\	.	16g#\ 16ee	.	16b\ 16gg#	.	8e/	8e\	.	8b\ 8dd	.	8gg#\	.
.	.	.	.	16g#\ 16ee	.	16b\ 16gg#	.	.	.	.	.	.	.	.
.	.	.	.	16g#\ 16ee	.	16b\ 16gg#	.	8e/J	8e\J	.	8b\J 8dd	.	8gg#\J	.
.	.	.	.	16g#\JJ 16ee	.	16b\JJ 16gg#	.	.	.	.	.	.	.	.
*	*	*	*	*	*	*	*	*Xtremolo	*Xtremolo	*	*Xtremolo	*	*Xtremolo	*
=117	=117	=117	=117	=117	=117	=117	=117	=117	=117	=117	=117	=117	=117	=117
*^	*	*	*	*	*	*	*	*	*	*	*^	*	*	*
*tremolo	*tremolo	*	*tremolo	*	*	*	*	*	*	*	*	*	*	*	*	*
16AA/LL	8AA\L	.	16A/LL	.	16a/LL	.	16aa\LL	.	8A/	8A\	.	8a/L	8a\L	.	8aa\L	.
16AA/	.	.	16A/	.	16a/	.	16aa\	.	.	.	.	.	.	.	.	.
16BB/	8BB\	.	16B/	.	16b/	.	16bb\	.	8r	8ryy	.	8b/	8b\	.	8bb\	.
16BB/	.	.	16B/	.	16b/	.	16bb\	.	.	.	.	.	.	.	.	.
16C#/	8C#\	.	16c#/	.	16cc#/	.	16ccc#\	.	4r	4ryy	.	8cc#/	8cc#\	.	8ccc#\	.
16C#/	.	.	16c#/	.	16cc#/	.	16ccc#\	.	.	.	.	.	.	.	.	.
16D/	8D\J	.	16d/	.	16dd/	.	16ddd\	.	.	.	.	8dd/J	8dd\J	.	8ddd\J	.
16D/JJ	.	.	16d/JJ	.	16dd/JJ	.	16ddd\JJ	.	.	.	.	.	.	.	.	.
=118	=118	=118	=118	=118	=118	=118	=118	=118	=118	=118	=118	=118	=118	=118	=118	=118
*	*	*	*	*	*	*	*	*	*tremolo	*tremolo	*	*	*	*	*tremolo	*
16E/LL	8E\L	.	16c#\LL 16a	.	16cc#\LL 16aa	.	16eee\LL	.	8e/L	8e\L	.	8ee/L	8ee\L	.	8eee\L	.
16E/	.	.	16c#\ 16a	.	16cc#\ 16aa	.	16eee\	.	.	.	.	.	.	.	.	.
16E/	8E\	.	16c#\ 16a	.	16cc#\ 16aa	.	16eee\	.	8e/	8e\	.	8aa/	8cc#\	.	8eee\	.
16E/	.	.	16c#\JJ 16a	.	16cc#\JJ 16aa	.	16eee\	.	.	.	.	.	.	.	.	.
16E/	8E\	.	16B\LL 16g#X	.	16b\LL 16gg#X	.	16eee\	.	8e/	8e\	.	8gg#/	8b\	.	8eee\	.
16E/	.	.	16B\ 16g#	.	16b\ 16gg#	.	16eee\	.	.	.	.	.	.	.	.	.
16E/	8E\J	.	16B\ 16g#	.	16b\ 16gg#	.	16eee\	.	8e/J	8e\J	.	8gg#/J	8b\J	.	8eee\J	.
16E/JJ	.	.	16B\JJ 16g#	.	16b\JJ 16gg#	.	16eee\JJ	.	.	.	.	.	.	.	.	.
*	*	*	*	*	*	*	*	*	*Xtremolo	*Xtremolo	*	*	*	*	*Xtremolo	*
!	!	!	!	!	!	!	!	!	!	!	!	!	!	!	!LO:TX:a:t=13.	!
=119	=119	=119	=119	=119	=119	=119	=119	=119	=119	=119	=119	=119	=119	=119	=119	=119
16AA/LL	8AA\L	.	16A/LL	.	16a/LL	.	16aa\LL	.	8A/	8A\	.	8aa/L	8a\L	.	8aa\L	.
16AA/	.	.	16A/	.	16a/	.	16aa\	.	.	.	.	.	.	.	.	.
16BB/	8BB\	.	16B/	.	16b/	.	16bb\	.	8r	8ryy	.	8b/	8b\	.	8bb\	.
16BB/	.	.	16B/	.	16b/	.	16bb\	.	.	.	.	.	.	.	.	.
16C#/	8C#\	.	16c#/	.	16cc#/	.	16ccc#\	.	4r	4ryy	.	8cc#/	8cc#\	.	8ccc#\	.
16C#/	.	.	16c#/	.	16cc#/	.	16ccc#\	.	.	.	.	.	.	.	.	.
16D/	8D\J	.	16d/	.	16dd/	.	16ddd\	.	.	.	.	8dd/J	8dd\J	.	8ddd\J	.
16D/JJ	.	.	16d/JJ	.	16dd/JJ	.	16ddd\JJ	.	.	.	.	.	.	.	.	.
=120	=120	=120	=120	=120	=120	=120	=120	=120	=120	=120	=120	=120	=120	=120	=120	=120
*	*	*	*	*	*	*	*	*	*tremolo	*tremolo	*	*	*	*	*tremolo	*
16E/LL	8E\L	.	16c#\LL 16a	.	16cc#\LL 16aa	.	16eee\LL	.	8e/L	8e\L	.	8ee/L	8ee\L	.	8eee\L	.
16E/	.	.	16c#\ 16a	.	16cc#\ 16aa	.	16eee\	.	.	.	.	.	.	.	.	.
16E/	8E\	.	16c#\ 16a	.	16cc#\ 16aa	.	16eee\	.	8e/	8e\	.	8aa/	8cc#\	.	8eee\	.
16E/	.	.	16c#\JJ 16a	.	16cc#\JJ 16aa	.	16eee\	.	.	.	.	.	.	.	.	.
16E/	8E\	.	16B\LL 16g#X	.	16b\LL 16gg#X	.	16eee\	.	8e/	8e\	.	8gg#/	8b\	.	8eee\	.
16E/	.	.	16B\ 16g#	.	16b\ 16gg#	.	16eee\	.	.	.	.	.	.	.	.	.
16E/	8E\J	.	16B\ 16g#	.	16b\ 16gg#	.	16eee\	.	8e/J	8e\J	.	8gg#/J	8b\J	.	8eee\J	.
16E/JJ	.	.	16B\JJ 16g#	.	16b\JJ 16gg#	.	16eee\JJ	.	.	.	.	.	.	.	.	.
*	*	*	*	*	*	*	*	*	*Xtremolo	*Xtremolo	*	*	*	*	*Xtremolo	*
=121	=121	=121	=121	=121	=121	=121	=121	=121	=121	=121	=121	=121	=121	=121	=121	=121
16A/LL	8A\L	.	16a\LL	.	16aa\LL	.	16aa\LL	.	8A/	8A\	.	8aa/L	8a\L	.	8aa\L	.
16A/	.	.	16a\	.	16aa\	.	16aa\	.	.	.	.	.	.	.	.	.
16A/	8A\J	.	16a\	.	16aa\	.	16aa\	.	8r	8ryy	.	8aa/	8a\	.	8aa\	.
16A/JJ	.	.	16a\JJ	.	16aa\JJ	.	16aa\JJ	.	.	.	.	.	.	.	.	.
16E/LL	8E\L	.	16e\LL	.	16ee\LL	.	16ee\LL	.	4r	4ryy	.	8ee/	8e\	.	8ee\	.
16E/	.	.	16e\	.	16ee\	.	16ee\	.	.	.	.	.	.	.	.	.
16C#/	8C#\J	.	16c#\	.	16cc#\	.	16cc#\	.	.	.	.	8cc#/J	8c#\J	.	8cc#\J	.
16C#/JJ	.	.	16c#\JJ	.	16cc#\JJ	.	16cc#\JJ	.	.	.	.	.	.	.	.	.
*	*	*	*Xtremolo	*	*	*	*Xtremolo	*	*	*	*	*	*	*	*	*
*	*	*	*	*	*	*	*	*	*v	*v	*	*	*	*	*	*
=122	=122	=122	=122	=122	=122	=122	=122	=122	=122	=122	=122	=122	=122	=122	=122
16AA/LL	8AA\L	.	8A/	.	16a/LL	.	8a/	.	8AA/ 8A	.	8a/	8A\	.	8a/	.
16AA/	.	.	.	.	16a/	.	.	.	.	.	.	.	.	.	.
16A/	8A\	.	8r	.	16a/	.	8r	.	8r	.	8r	8ryy	.	8r	.
16A/	.	.	.	.	16a/JJ	.	.	.	.	.	.	.	.	.	.
16E/	8E\	.	4r	.	16e/LL	.	4r	.	4r	.	4r	4ryy	.	4r	.
16E/	.	.	.	.	16e/	.	.	.	.	.	.	.	.	.	.
16C#/	8C#\J	.	.	.	16c#/	.	.	.	.	.	.	.	.	.	.
16C#/JJ	.	.	.	.	16c#/JJ	.	.	.	.	.	.	.	.	.	.
*Xtremolo	*Xtremolo	*	*	*	*Xtremolo	*	*	*	*	*	*	*	*	*	*
*	*	*	*	*	*	*	*	*	*	*	*v	*v	*	*	*
=123	=123	=123	=123	=123	=123	=123	=123	=123	=123	=123	=123	=123	=123	=123
*	*	*	*	*	*tremolo	*	*tremolo	*	*	*	*	*	*	*
8AA/	8AA\	.	2r	.	16A/LL	pp <	16a/LL	pp <	2r	.	2r	.	2r	.
.	.	.	.	.	16A/	.	16a/	.	.	.	.	.	.	.
8r	8ryy	.	.	.	16A/	.	16a/	.	.	.	.	.	.	.
.	.	.	.	.	16A/	.	16a/	.	.	.	.	.	.	.
4r	4ryy	.	.	.	16A/	.	16a/	.	.	.	.	.	.	.
.	.	.	.	.	16A/	.	16a/	.	.	.	.	.	.	.
.	.	.	.	.	16A/	.	16a/	.	.	.	.	.	.	.
.	.	.	.	.	16A/JJ	[[	16a/JJ	[[	.	.	.	.	.	.
*v	*v	*	*	*	*	*	*	*	*	*	*	*	*	*
!	!	!	!	!	!	!	!	!	!	!LO:TX:b:t=2.	!	!	!
=124	=124	=124	=124	=124	=124	=124	=124	=124	=124	=124	=124	=124	=124
2r	.	2r	.	16A/LL	>	16a/LL	>	2r	.	2r	.	2r	.
.	.	.	.	16A/	.	16a/	.	.	.	.	.	.	.
.	.	.	.	16A/	.	16a/	.	.	.	.	.	.	.
.	.	.	.	16A/	.	16a/	.	.	.	.	.	.	.
.	.	.	.	16A/	.	16a/	.	.	.	.	.	.	.
.	.	.	.	16A/	.	16a/	.	.	.	.	.	.	.
.	.	.	.	16A/	.	16a/	.	.	.	.	.	.	.
.	.	.	.	16A/JJ	]]	16a/JJ	]]	.	.	.	.	.	.
=125	=125	=125	=125	=125	=125	=125	=125	=125	=125	=125	=125	=125	=125
*tremolo	*	*tremolo	*	*	*	*	*	*	*	*	*	*	*
8A\L	pp	8cn\L	pp	8e/L	pp	8a/L	pp	2r	.	8.ccX\L 8.ee	pp	2r	.
8A\	.	8c\	.	8e/	.	8a/	.	.	.	.	.	.	.
.	.	.	.	.	.	.	.	.	.	16b\K 16dd	.	.	.
8A\	.	8c\	.	8e/	.	8a/	.	.	.	8.a\ 8.cc	.	.	.
8A\J	.	8c\J	.	8e/J	.	8a/J	.	.	.	.	.	.	.
.	.	.	.	.	.	.	.	.	.	16b\Jk 16dd	.	.	.
=126	=126	=126	=126	=126	=126	=126	=126	=126	=126	=126	=126	=126	=126
*rep	*	*rep	*	*rep	*	*rep	*	*	*	*	*	*	*
8A\L	.	8cn\L	.	8e/L	.	8a/L	.	2r	.	4ccX\ 4ee	.	2r	.
8A\	.	8c\	.	8e/	.	8a/	.	.	.	.	.	.	.
8A\	.	8c\	.	8e/	.	8a/	.	.	.	4cc\ 4aa	.	.	.
8A\J	.	8c\J	.	8e/J	.	8a/J	.	.	.	.	.	.	.
*Xrep	*	*Xrep	*	*Xrep	*	*Xrep	*	*	*	*	*	*	*
=127	=127	=127	=127	=127	=127	=127	=127	=127	=127	=127	=127	=127	=127
*rep	*	*	*	*	*	*rep	*	*	*	*	*	*	*
8A\L	.	8d\L	.	8fn/L	.	8a/L	.	2r	.	2dd\ 2ffX	.	2r	.
8A\	.	8d\	.	8f/	.	8a/	.	.	.	.	.	.	.
8A\	.	8d\	.	8f/	.	8a/	.	.	.	.	.	.	.
8A\J	.	8d\J	.	8f/J	.	8a/J	.	.	.	.	.	.	.
*Xrep	*	*	*	*	*	*Xrep	*	*	*	*	*	*	*
=128	=128	=128	=128	=128	=128	=128	=128	=128	=128	=128	=128	=128	=128
*rep	*	*	*	*	*	*rep	*	*	*	*	*	*	*
8A\L	.	8cn\L	.	8e/L	.	8a/L	.	2r	.	4ccX\ 4ee	.	2r	.
8A\	.	8c\	.	8e/	.	8a/	.	.	.	.	.	.	.
8A\	.	8c\	.	8e/	.	8a/	.	.	.	8.cc\L 8.aa	.	.	.
8A\J	.	8c\J	.	8e/J	.	8a/J	.	.	.	.	.	.	.
.	.	.	.	.	.	.	.	.	.	16ee\Jk 16gg	.	.	.
*Xrep	*	*	*	*	*	*Xrep	*	*	*	*	*	*	*
!	!	!	!	!	!	!	!	!	!	!	!	!LO:TX:a:t=14.	!
=129	=129	=129	=129	=129	=129	=129	=129	=129	=129	=129	=129	=129	=129
*rep	*	*	*	*	*	*rep	*	*	*	*	*	*	*
8A\L	.	8d\L	.	8fn/L	.	8a/L	.	2r	.	4dd\ 4ffX	.	2r	.
8A\	.	8d\J	.	8f/J	.	8a/	.	.	.	.	.	.	.
8A\	.	8cn\L	.	8e/L	.	8a/	.	.	.	4ccX\ 4ee	.	.	.
8A\J	.	8c\J	.	8e/J	.	8a/J	.	.	.	.	.	.	.
*Xrep	*	*	*	*	*	*Xrep	*	*	*	*	*	*	*
=130	=130	=130	=130	=130	=130	=130	=130	=130	=130	=130	=130	=130	=130
8G#X\L	.	8B/L	.	8e/L	.	8b\L	.	2r	.	4b\ 4dd	.	2r	.
8G#\J	.	8B/J	.	8e/	.	8b\J	.	.	.	.	.	.	.
8A\L	.	8A/L	.	8e/	.	8ccn\L	.	.	.	4a\ 4ccX	.	.	.
8A\J	.	8A/J	.	8e/J	.	8cc\J	.	.	.	.	.	.	.
*Xtremolo	*	*Xtremolo	*	*	*	*Xtremolo	*	*	*	*	*	*	*
=131	=131	=131	=131	=131	=131	=131	=131	=131	=131	=131	=131	=131	=131
8E\	.	8G#X/	.	16e/LL	<	8b\L	<	2r	.	8g#\ 8b	.	2r	.
.	.	.	.	16e/	.	.	.	.	.	.	.	.	.
8r	.	8r	.	16e/	.	16ee\L	.	.	.	8r	.	.	.
.	.	.	.	16e/	.	16ee\JJ	.	.	.	.	.	.	.
*	*	*	*	*	*	*tremolo	*	*	*	*	*	*	*
4r	.	4r	.	16e/	.	16ee\LL	.	.	.	4r	.	.	.
.	.	.	.	16e/	.	16ee\	.	.	.	.	.	.	.
.	.	.	.	16e/	.	16ee\	.	.	.	.	.	.	.
.	.	.	.	16e/JJ	[[	16ee\JJ	[[	.	.	.	.	.	.
=132	=132	=132	=132	=132	=132	=132	=132	=132	=132	=132	=132	=132	=132
4r	.	4r	.	16e/LL	>	16ee\LL	>	2r	.	2r	.	2r	.
.	.	.	.	16e/	.	16ee\	.	.	.	.	.	.	.
.	.	.	.	16e/	.	16ee\	.	.	.	.	.	.	.
.	.	.	.	16e/	.	16ee\	.	.	.	.	.	.	.
4Cn/	.	4Gn/ 4B-X	.	16e/	.	16ee\	.	.	.	.	.	.	.
.	.	.	.	16e/	.	16ee\	.	.	.	.	.	.	.
.	.	.	.	16e/	.	16ee\	.	.	.	.	.	.	.
.	.	.	.	16e/JJ	]]	16ee\JJ	]]	.	.	.	.	.	.
*	*	*	*	*Xtremolo	*	*Xtremolo	*	*	*	*	*	*	*
=133	=133	=133	=133	=133	=133	=133	=133	=133	=133	=133	=133	=133	=133
*tremolo	*	*tremolo	*	*tremolo	*	*	*	*	*	*	*	*	*
8Fn\L	pp	8cn\L	pp	8fn/L	pp	8ffn\L	pp	2r	.	8.a\L 8.ccX	pp	2r	.
8F\	.	8c\	.	8f/	.	8a\	.	.	.	.	.	.	.
.	.	.	.	.	.	.	.	.	.	16gX\K 16b-X	.	.	.
8F\	.	8c\	.	8f/	.	8a\	.	.	.	8.fX\ 8.a	.	.	.
8F\J	.	8c\J	.	8f/J	.	8a\J	.	.	.	.	.	.	.
.	.	.	.	.	.	.	.	.	.	16g\Jk 16b-	.	.	.
!!LO:PB:g=original
=134	=134	=134	=134	=134	=134	=134	=134	=134	=134	=134	=134	=134	=134
*	*	*	*	*	*	*tremolo	*	*	*	*	*	*	*
8Fn\L	.	8cn\L	.	8fn/L	.	8a/L	.	2r	.	4a\ 4ccX	.	2r	.
8F\	.	8c\	.	8f/	.	8a/	.	.	.	.	.	.	.
8F\	.	8c\	.	8f/	.	8a/	.	.	.	4a\ 4ffX	.	.	.
8F\J	.	8c\J	.	8f/J	.	8a/J	.	.	.	.	.	.	.
=135	=135	=135	=135	=135	=135	=135	=135	=135	=135	=135	=135	=135	=135
*rep	*	*	*	*rep	*	*	*	*	*	*	*	*	*
8Fn\L	.	8d\L	.	8fn/L	.	8b-X/L	.	2r	.	2b-X^<\ 2dd	.	2r	.
8F\	.	8d\	.	8f/	.	8b-/	.	.	.	.	.	.	.
8F\	.	8d\	.	8f/	.	8b-/	.	.	.	.	.	.	.
8F\J	.	8d\J	.	8f/J	.	8b-/J	.	.	.	.	.	.	.
*Xrep	*	*	*	*Xrep	*	*	*	*	*	*	*	*	*
=136	=136	=136	=136	=136	=136	=136	=136	=136	=136	=136	=136	=136	=136
*rep	*	*	*	*rep	*	*	*	*	*	*	*	*	*
8Fn\L	.	8cn\L	.	8fn/L	.	8a/L	.	2r	.	4a\ 4ccX	.	2r	.
8F\	.	8c\	.	8f/	.	8a/	.	.	.	.	.	.	.
8F\	.	8c\	.	8f/	.	8a/	.	.	.	8.a\L 8.ffX	.	.	.
8F\J	.	8c\J	.	8f/J	.	8a/J	.	.	.	.	.	.	.
.	.	.	.	.	.	.	.	.	.	16ccX\Jk 16ee	.	.	.
*Xrep	*	*	*	*Xrep	*	*	*	*	*	*	*	*	*
*	*	*Xtremolo	*	*Xtremolo	*	*	*	*	*	*	*	*	*
=137	=137	=137	=137	=137	=137	=137	=137	=137	=137	=137	=137	=137	=137
8BB-X/L	.	8d\L	.	8fn/L	.	8b-X/L	.	2r	.	4b-X\ 4dd	.	2r	.
8BB-/	.	8d\	.	8f/	.	8b-/J	.	.	.	.	.	.	.
8BB-/	.	8B-X\	.	8d/	.	8f#X/L	.	.	.	4f#X\ 4ff#X	.	.	.
8BB-/J	.	8B-\J	.	8d/J	.	8f#/J	.	.	.	.	.	.	.
=138	=138	=138	=138	=138	=138	=138	=138	=138	=138	=138	=138	=138	=138
*rep	*	*tremolo	*	*tremolo	*	*	*	*	*	*	*	*	*
8BB-X/L	.	8B-X/L	.	8d/L	.	8g/L	.	2r	.	4g\ 4gg	.	2r	.
8BB-/	.	8B-/	.	8d/	.	8g/J	.	.	.	.	.	.	.
8BB-/	.	8B-/	.	8d/	.	8g#X/L	.	.	.	4g#\ 4gg#	.	.	.
8BB-/J	.	8B-/J	.	8d/J	.	8g#/J	.	.	.	.	.	.	.
*Xrep	*	*	*	*	*	*	*	*	*	*	*	*	*
*Xtremolo	*	*Xtremolo	*	*Xtremolo	*	*Xtremolo	*	*	*	*	*	*	*
=139	=139	=139	=139	=139	=139	=139	=139	=139	=139	=139	=139	=139	=139
*	*	*	*	*	*	*	*	*	*	*^	*	*	*
!	!LO:DY:rj	!	!LO:DY:rj	!	!LO:DY:rj	!	!LO:DY:rj	!	!LO:DY:rj	!	!	!LO:DY:rj	!	!LO:DY:rj
8.AA/L	ff	8.A/L	ff	8c#X/L	ff	8a\L	ff	8A\L 8e	ff	8aa/L	8a\L	ff	8aa\L	ff
.	.	.	.	16e/L 16cc#X	.	16cc#X\L 16aa	.	16A\L 16e	.	16ee/L	16cc#\L	.	16aa\L	.
16D/K	.	16d/K	.	16e/JJ 16cc#	.	16cc#\JJ 16aa	.	16A\J 16e	.	16ee/J	16cc#\J	.	16aa\J	.
*	*	*	*	*tremolo	*	*tremolo	*	*	*	*	*	*	*	*
8.C#X/	.	8.c#X/	.	16e/LL 16cc#	.	16cc#\LL 16aa	.	8A\ 8e	.	8ee/	8cc#\	.	8aa\	.
.	.	.	.	16e/ 16cc#	.	16cc#\ 16aa	.	.	.	.	.	.	.	.
.	.	.	.	16e/ 16cc#	.	16cc#\ 16aa	.	8A\J 8e	.	8ee/J	8cc#\J	.	8aa\J	.
16D/Jk	.	16d/Jk	.	16e/JJ 16cc#	.	16cc#\JJ 16aa	.	.	.	.	.	.	.	.
*	*	*	*	*	*	*	*	*	*	*v	*v	*	*	*
!	!	!	!	!	!	!	!	!	!	!	!	!LO:TX:a:t=15.	!
=140	=140	=140	=140	=140	=140	=140	=140	=140	=140	=140	=140	=140	=140
*	*	*	*	*	*	*	*	*rep	*	*	*	*rep	*
4E/	.	4e\	.	16e/LL 16cc#X	.	16cc#X\LL 16aa	.	8A\L 8e	.	8cc#\L 8ee	.	8aa\L	.
.	.	.	.	16e/ 16cc#	.	16cc#\ 16aa	.	.	.	.	.	.	.
.	.	.	.	16e/ 16cc#	.	16cc#\ 16aa	.	16A\L 16e	.	16cc#\L 16ee	.	16aa\L	.
.	.	.	.	16e/ 16cc#	.	16cc#\ 16aa	.	16A\J 16e	.	16cc#\J 16ee	.	16aa\J	.
4AA/	.	4A/	.	16e/ 16cc#	.	16cc#\ 16aa	.	8A\ 8e	.	8cc#\ 8ee	.	8aa\	.
.	.	.	.	16e/ 16cc#	.	16cc#\ 16aa	.	.	.	.	.	.	.
.	.	.	.	16e/ 16cc#	.	16cc#\ 16aa	.	8A\J 8e	.	8cc#\J 8ee	.	8aa\J	.
.	.	.	.	16e/JJ 16cc#	.	16cc#\JJ 16aa	.	.	.	.	.	.	.
*	*	*	*	*	*	*	*	*Xrep	*	*	*	*Xrep	*
=141	=141	=141	=141	=141	=141	=141	=141	=141	=141	=141	=141	=141	=141
8.Fn\L	.	8.fn\L	.	16fn/LL 16dd	.	16a\LL 16aa	.	8A\L 8d	.	8dd\L 8ffX	.	8aa\L	.
.	.	.	.	16f/ 16dd	.	16a\ 16aa	.	.	.	.	.	.	.
.	.	.	.	16f/ 16dd	.	16a\ 16aa	.	16A\L 16d	.	16dd\L 16ff	.	16aa\L	.
16E\K	.	16e\K	.	16f/ 16dd	.	16a\ 16aa	.	16A\J 16d	.	16dd\J 16ff	.	16aa\J	.
8.D\	.	8.d\	.	16f/ 16dd	.	16a\ 16aa	.	8A\ 8d	.	8dd\ 8ff	.	8aa\	.
.	.	.	.	16f/ 16dd	.	16a\ 16aa	.	.	.	.	.	.	.
.	.	.	.	16f/ 16dd	.	16a\ 16aa	.	8A\J 8d	.	8dd\J 8ff	.	8aa\J	.
16E\Jk	.	16e\Jk	.	16f/JJ 16dd	.	16a\JJ 16aa	.	.	.	.	.	.	.
=142	=142	=142	=142	=142	=142	=142	=142	=142	=142	=142	=142	=142	=142
*	*	*	*	*rep	*	*rep	*	*rep	*	*rep	*	*rep	*
4Fn\	.	4fn\	.	16fn/LL 16dd	.	16a\LL 16aa	.	8A\L 8d	.	8dd\L 8ffX	.	8aa\L	.
.	.	.	.	16f/ 16dd	.	16a\ 16aa	.	.	.	.	.	.	.
.	.	.	.	16f/ 16dd	.	16a\ 16aa	.	16A\L 16d	.	16dd\L 16ff	.	16aa\L	.
.	.	.	.	16f/ 16dd	.	16a\ 16aa	.	16A\J 16d	.	16dd\J 16ff	.	16aa\J	.
4AA/	.	4A/	.	16f/ 16dd	.	16a\ 16aa	.	8A\ 8d	.	8dd\ 8ff	.	8aa\	.
.	.	.	.	16f/ 16dd	.	16a\ 16aa	.	.	.	.	.	.	.
.	.	.	.	16f/ 16dd	.	16a\ 16aa	.	8A\J 8d	.	8dd\J 8ff	.	8aa\J	.
.	.	.	.	16f/JJ 16dd	.	16a\JJ 16aa	.	.	.	.	.	.	.
*	*	*	*	*Xrep	*	*Xrep	*	*Xrep	*	*Xrep	*	*Xrep	*
=143	=143	=143	=143	=143	=143	=143	=143	=143	=143	=143	=143	=143	=143
*	*	*	*	*	*	*	*	*	*	*	*	*rep	*
8.E\L	.	8.e\L	.	16e/LL 16cc#	.	16cc#\LL 16aa	.	8A\L 8e	.	8cc#\L 8ee	.	8aa\L	.
.	.	.	.	16e/ 16cc#	.	16cc#\ 16aa	.	.	.	.	.	.	.
.	.	.	.	16e/ 16cc#	.	16cc#\ 16aa	.	16A\L 16e	.	16cc#\L 16ee	.	16aa\L	.
16D\K	.	16d\K	.	16e/ 16cc#	.	16cc#\ 16aa	.	16A\J 16e	.	16cc#\J 16ee	.	16aa\J	.
8.C#\	.	8.c#\	.	16e/ 16cc#	.	16cc#\ 16aa	.	8A\ 8e	.	8cc#\ 8ee	.	8aa\	.
.	.	.	.	16e/ 16cc#	.	16cc#\ 16aa	.	.	.	.	.	.	.
.	.	.	.	16e/ 16cc#	.	16cc#\ 16aa	.	8A\J 8e	.	8cc#\J 8ee	.	8aa\J	.
16D\Jk	.	16d\Jk	.	16e/JJ 16cc#	.	16cc#\JJ 16aa	.	.	.	.	.	.	.
*	*	*	*	*	*	*	*	*	*	*	*	*Xrep	*
=144	=144	=144	=144	=144	=144	=144	=144	=144	=144	=144	=144	=144	=144
*	*	*	*	*rep	*	*rep	*	*rep	*	*rep	*	*rep	*
4E\	.	4e\	.	16e/LL 16cc#	.	16cc#\LL 16aa	.	8A\L 8e	.	8cc#\L 8ee	.	8aa\L	.
.	.	.	.	16e/ 16cc#	.	16cc#\ 16aa	.	.	.	.	.	.	.
.	.	.	.	16e/ 16cc#	.	16cc#\ 16aa	.	16A\L 16e	.	16cc#\L 16ee	.	16aa\L	.
.	.	.	.	16e/ 16cc#	.	16cc#\ 16aa	.	16A\J 16e	.	16cc#\J 16ee	.	16aa\J	.
4AA/	.	4A/	.	16e/ 16cc#	.	16cc#\ 16aa	.	8A\ 8e	.	8cc#\ 8ee	.	8aa\	.
.	.	.	.	16e/ 16cc#	.	16cc#\ 16aa	.	.	.	.	.	.	.
.	.	.	.	16e/ 16cc#	.	16cc#\ 16aa	.	8A\J 8e	.	8cc#\J 8ee	.	8aa\J	.
.	.	.	.	16e/JJ 16cc#	.	16cc#\JJ 16aa	.	.	.	.	.	.	.
*	*	*	*	*Xrep	*	*Xrep	*	*Xrep	*	*Xrep	*	*Xrep	*
=145	=145	=145	=145	=145	=145	=145	=145	=145	=145	=145	=145	=145	=145
*	*	*	*	*	*	*	*	*	*	*	*	*rep	*
8.Fn\L	.	8.fn\L	.	16fn/LL 16dd	.	16a\LL 16aa	.	8A\L 8d	.	8dd\L 8ffX	.	8aa\L	.
.	.	.	.	16f/ 16dd	.	16a\ 16aa	.	.	.	.	.	.	.
.	.	.	.	16f/ 16dd	.	16a\ 16aa	.	16A\L 16d	.	16dd\L 16ff	.	16aa\L	.
16E\K	.	16e\K	.	16f/ 16dd	.	16a\ 16aa	.	16A\J 16d	.	16dd\J 16ff	.	16aa\J	.
8.D\	.	8.d\	.	16f/ 16dd	.	16a\ 16aa	.	8A\ 8d	.	8dd\ 8ff	.	8aa\	.
.	.	.	.	16f/ 16dd	.	16a\ 16aa	.	.	.	.	.	.	.
.	.	.	.	16f/ 16dd	.	16a\ 16aa	.	8A\J 8d	.	8dd\J 8ff	.	8aa\J	.
16E\Jk	.	16e\Jk	.	16f/JJ 16dd	.	16a\JJ 16aa	.	.	.	.	.	.	.
*	*	*	*	*	*	*	*	*	*	*	*	*Xrep	*
=146	=146	=146	=146	=146	=146	=146	=146	=146	=146	=146	=146	=146	=146
*	*	*	*	*rep	*	*rep	*	*rep	*	*rep	*	*rep	*
4Fn\	.	4fn\	.	16fn/LL 16dd	.	16a\LL 16aa	.	8A\L 8d	.	8dd\L 8ffX	.	8aa\L	.
.	.	.	.	16f/ 16dd	.	16a\ 16aa	.	.	.	.	.	.	.
.	.	.	.	16f/ 16dd	.	16a\ 16aa	.	16A\L 16d	.	16dd\L 16ff	.	16aa\L	.
.	.	.	.	16f/ 16dd	.	16a\ 16aa	.	16A\J 16d	.	16dd\J 16ff	.	16aa\J	.
4AA/	.	4A/	.	16f/ 16dd	.	16a\ 16aa	.	8A\ 8d	.	8dd\ 8ff	.	8aa\	.
.	.	.	.	16f/ 16dd	.	16a\ 16aa	.	.	.	.	.	.	.
.	.	.	.	16f/ 16dd	.	16a\ 16aa	.	8A\J 8d	.	8dd\J 8ff	.	8aa\J	.
.	.	.	.	16f/JJ 16dd	.	16a\JJ 16aa	.	.	.	.	.	.	.
*	*	*	*	*Xrep	*	*Xrep	*	*Xrep	*	*Xrep	*	*Xrep	*
*	*	*	*	*Xtremolo	*	*Xtremolo	*	*	*	*	*	*	*
=147	=147	=147	=147	=147	=147	=147	=147	=147	=147	=147	=147	=147	=147
8AA/	.	8a\	.	8e/ 8cc#	.	8a\L 8aa	.	8A\ 8e	.	8cc#\ 8ee	.	8aa\	.
8r	.	8r	.	8r	.	16aa\L	.	8r	.	8r	.	8r	.
.	.	.	.	.	.	16bb\JJ	.	.	.	.	.	.	.
4r	.	8g\	.	4r	.	8gg\L	.	4r	.	4r	.	4r	.
.	.	8r	.	.	.	16gg\L	.	.	.	.	.	.	.
.	.	.	.	.	.	16aa\JJ	.	.	.	.	.	.	.
=148	=148	=148	=148	=148	=148	=148	=148	=148	=148	=148	=148	=148	=148
2r	.	8f#X\	.	2r	.	8ff#X\L	.	2r	.	2r	.	2r	.
.	.	8r	.	.	.	16ff#\L	.	.	.	.	.	.	.
.	.	.	.	.	.	16gg\JJ	.	.	.	.	.	.	.
.	.	8e\	.	.	.	8ee\L	.	.	.	.	.	.	.
.	.	8r	.	.	.	16ee\L	.	.	.	.	.	.	.
.	.	.	.	.	.	16ff#\JJ	.	.	.	.	.	.	.
!	!	!	!	!LO:TX:a:t=4.	!	!	!	!	!	!	!	!LO:TX:a:t=16.	!
=149	=149	=149	=149	=149	=149	=149	=149	=149	=149	=149	=149	=149	=149
8D\	p	8d\L	p	8f#X/L	p	8dd\	.	2r	.	2r	.	2r	.
8r	.	8f#\	.	8a/	.	8r	.	.	.	.	.	.	.
8D\	.	8d\	.	8f#/	.	4r	.	.	.	.	.	.	.
8r	.	8f#\J	.	8a/J	.	.	.	.	.	.	.	.	.
=150	=150	=150	=150	=150	=150	=150	=150	=150	=150	=150	=150	=150	=150
*rep	*	*	*	*	*	*	*	*	*	*	*	*	*
8D\	.	8d\L	.	8d/L	.	8f#/L	p	2r	.	2r	.	2r	.
8r	.	8A\	.	8f#/	.	8a/	.	.	.	.	.	.	.
8D\	.	8d\	.	8d/	.	8f#/	.	.	.	.	.	.	.
8r	.	8A\J	.	8f#/J	.	8a/J	.	.	.	.	.	.	.
*Xrep	*	*	*	*	*	*	*	*	*	*	*	*	*
!!LO:LB:g=original
=151	=151	=151	=151	=151	=151	=151	=151	=151	=151	=151	=151	=151	=151
*	*	*	*	*	*	*	*	*	*	*^	*	*	*
*rep	*	*rep	*	*rep	*	*rep	*	*	*	*	*	*	*	*
8D\	.	8d\L	.	8d/L	.	8f#/L	.	2r	.	4.dd/	2r	p	4.ddd\	p
8r	.	8A\	.	8f#/	.	8a/	.	.	.	.	.	.	.	.
8D\	.	8d\	.	8d/	.	8f#/	.	.	.	.	.	.	.	.
8r	.	8A\J	.	8f#/J	.	8a/J	.	.	.	16ee/LL	.	.	16eee\LL	.
.	.	.	.	.	.	.	.	.	.	16dd/JJ	.	.	16ddd\JJ	.
*Xrep	*	*Xrep	*	*Xrep	*	*Xrep	*	*	*	*	*	*	*	*
=152	=152	=152	=152	=152	=152	=152	=152	=152	=152	=152	=152	=152	=152	=152
*rep	*	*rep	*	*rep	*	*rep	*	*	*	*	*	*	*	*
8D\	.	8d\L	.	8d/L	.	8f#/L	.	2r	.	8cc#/L	2r	.	8ccc#X\L	.
8r	.	8A\	.	8f#/	.	8a/	.	.	.	8dd/	.	.	8ddd\	.
8D\	.	8d\	.	8d/	.	8f#/	.	.	.	8ee/	.	.	8eee\	.
8r	.	8A\J	.	8f#/J	.	8a/J	.	.	.	8ff#/J	.	.	8fff#\J	.
*Xrep	*	*Xrep	*	*Xrep	*	*Xrep	*	*	*	*	*	*	*	*
=153	=153	=153	=153	=153	=153	=153	=153	=153	=153	=153	=153	=153	=153	=153
*	*	*tremolo	*	*tremolo	*	*tremolo	*	*	*	*	*	*	*	*
8G\	.	8e\L	.	8e/L	.	8g/L	.	2r	.	4gg/	2r	.	4ggg\	.
8r	.	8B\	.	8g/	.	8b/	.	.	.	.	.	.	.	.
8G\	.	8e\	.	8e/	.	8g/	.	.	.	4b/	.	.	4bb\	.
8r	.	8B\J	.	8g/J	.	8b/J	.	.	.	.	.	.	.	.
=154	=154	=154	=154	=154	=154	=154	=154	=154	=154	=154	=154	=154	=154	=154
*rep	*	*rep	*	*rep	*	*rep	*	*	*	*	*	*	*	*
8G\	.	8e\L	.	8e/L	.	8g/L	.	2r	.	4.ee/	2r	.	4.eee\	.
8r	.	8B\	.	8g/	.	8b/	.	.	.	.	.	.	.	.
8G\	.	8e\	.	8e/	.	8g/	.	.	.	.	.	.	.	.
8r	.	8B\J	.	8g/J	.	8b/J	.	.	.	8dd/	.	.	8ddd\	.
*Xrep	*	*Xrep	*	*Xrep	*	*Xrep	*	*	*	*	*	*	*	*
=155	=155	=155	=155	=155	=155	=155	=155	=155	=155	=155	=155	=155	=155	=155
*	*	*	*	*rep	*	*	*	*	*	*	*	*	*	*
8A\	.	8e\L	.	8e/L	.	8g/L	.	2r	.	8dd/L	2r	.	8ddd\L	.
8r	.	8A\	.	8g/	.	8cc#X/	.	.	.	8cc#/	.	.	8ccc#X\	.
8A\	.	8e\	.	8e/	.	8g/	.	.	.	8b/	.	.	8bb\	.
8r	.	8A\J	.	8g/J	.	8cc#X/J	.	.	.	8a/J	.	.	8aa\J	.
*	*	*	*	*Xrep	*	*	*	*	*	*	*	*	*	*
=156	=156	=156	=156	=156	=156	=156	=156	=156	=156	=156	=156	=156	=156	=156
*rep	*	*rep	*	*	*	*	*	*	*	*	*	*	*	*
8A\	.	8e\L	.	8e/L	.	8g/L	.	2r	.	8g#/L	2r	.	8gg#X\L	.
8r	.	8A\	.	8a/	.	8a/	.	.	.	8a/	.	.	8aa\	.
8A\	.	8e\	.	8e/	.	8g/	.	.	.	8b/	.	.	8bb\	.
8r	.	8A\J	.	8a/J	.	8a/J	.	.	.	8cc#/J	.	.	8ccc#\J	.
*Xrep	*	*Xrep	*	*	*	*	*	*	*	*	*	*	*	*
*	*	*Xtremolo	*	*Xtremolo	*	*Xtremolo	*	*	*	*	*	*	*	*
=157	=157	=157	=157	=157	=157	=157	=157	=157	=157	=157	=157	=157	=157	=157
8D\	.	8d\L	.	8d/L	.	8f#/L	.	2r	.	4dd/	2r	.	4ddd\	.
8r	.	8A\	.	8f#/	.	8a/	.	.	.	.	.	.	.	.
8AA/	.	8e\	.	8c#X/	.	8e/	.	.	.	4ee/	.	.	4eee\	.
8r	.	8A\J	.	8a/J	.	8a/J	.	.	.	.	.	.	.	.
=158	=158	=158	=158	=158	=158	=158	=158	=158	=158	=158	=158	=158	=158	=158
*	*	*tremolo	*	*tremolo	*	*tremolo	*	*	*	*	*	*	*	*
8D\	.	8d\L	.	8d/L	.	8f#/L	.	2r	.	8ff#/	2r	.	8fff#\	.
8r	.	8A\	.	8f#/	.	8a/	.	.	.	8r	.	.	8r	.
8D\	.	8d\	.	8d/	.	8f#/	.	.	.	8aa/L	.	.	8aaa\L	.
8r	.	8A\J	.	8f#/J	.	8a/J	.	.	.	8aa/J	.	.	8aaa\J	.
!	!	!	!	!	!	!	!	!	!	!	!	!	!LO:TX:a:t=17.	!
=159	=159	=159	=159	=159	=159	=159	=159	=159	=159	=159	=159	=159	=159	=159
*	*	*rep	*	*	*	*	*	*	*	*	*	*	*	*
8F#\	.	8d\L	.	8d/L	.	8a/L	.	2r	.	4.aa/	2r	.	4.aaa\	.
8r	.	8A\	.	8a/	.	8dd/	.	.	.	.	.	.	.	.
8F#\	.	8d\	.	8d/	.	8a/	.	.	.	.	.	.	.	.
8r	.	8A\J	.	8a/J	.	8dd/J	.	.	.	8ff#/	.	.	8fff#\	.
*	*	*Xrep	*	*	*	*	*	*	*	*	*	*	*	*
=160	=160	=160	=160	=160	=160	=160	=160	=160	=160	=160	=160	=160	=160	=160
*rep	*	*rep	*	*rep	*	*rep	*	*	*	*	*	*	*	*
8F#\	.	8d\L	.	8d/L	.	8a/L	.	2r	.	4dd/	2r	.	4ddd\	.
8r	.	8A\	.	8a/	.	8dd/	.	.	.	.	.	.	.	.
8F#\	.	8d\	.	8d/	.	8a/	.	.	.	8ee/L	.	.	8eee\L	.
8r	.	8A\J	.	8a/J	.	8dd/J	.	.	.	8ff#/J	.	.	8fff#\J	.
*Xrep	*	*Xrep	*	*Xrep	*	*Xrep	*	*	*	*	*	*	*	*
*	*	*Xtremolo	*	*	*	*	*	*	*	*	*	*	*	*
=161	=161	=161	=161	=161	=161	=161	=161	=161	=161	=161	=161	=161	=161	=161
8G\	.	8d\L	.	8g/L	.	8b/L	.	2r	.	2gg/	2r	.	2ggg\	.
8r	.	8B\	.	8b/	.	8dd/	.	.	.	.	.	.	.	.
8G\	.	8g\	.	8g/	.	8b/	.	.	.	.	.	.	.	.
8r	.	8d\J	.	8b/J	.	8dd/J	.	.	.	.	.	.	.	.
=162	=162	=162	=162	=162	=162	=162	=162	=162	=162	=162	=162	=162	=162	=162
*rep	*	*tremolo	*	*rep	*	*	*	*	*	*	*	*	*	*
8G\	.	8g\L	.	8g/L	.	8b/L	.	2r	.	4g/	2r	.	4gg\	.
8r	.	8e\	.	8b/	.	8ee/	.	.	.	.	.	.	.	.
8G\	.	8g\	.	8g/	.	8b/	.	.	.	8gg/L	.	.	8ggg\L	.
8r	.	8e\J	.	8b/J	.	8ee/J	.	.	.	8gg/J	.	.	8ggg\J	.
*Xrep	*	*	*	*Xrep	*	*	*	*	*	*	*	*	*	*
=163	=163	=163	=163	=163	=163	=163	=163	=163	=163	=163	=163	=163	=163	=163
8A\	.	8f#\L	.	8f#/L	.	8a/L	.	2r	.	4ff#/	2r	.	4fff#\	.
8r	.	8d\	.	8a/	.	8dd/	.	.	.	.	.	.	.	.
8A\	.	8f#\	.	8f#/	.	8a/	.	.	.	4ff#/	.	.	4fff#\	.
8r	.	8d\J	.	8a/J	.	8dd/J	.	.	.	.	.	.	.	.
=164	=164	=164	=164	=164	=164	=164	=164	=164	=164	=164	=164	=164	=164	=164
*rep	*	*	*	*	*	*	*	*	*	*	*	*	*	*
8A\	.	8c#X\L	.	8e/L	.	8a/L	.	2r	.	4.ee/	2r	.	4.eee\	.
8r	.	8e\	.	8a/	.	8cc#X/	.	.	.	.	.	.	.	.
8A\	.	8c#X\	.	8e/	.	8a/	.	.	.	.	.	.	.	.
8r	.	8e\J	.	8a/J	.	8cc#X/J	.	.	.	8aa/	.	.	8aaa\	.
*Xrep	*	*	*	*	*	*	*	*	*	*	*	*	*	*
=165	=165	=165	=165	=165	=165	=165	=165	=165	=165	=165	=165	=165	=165	=165
8D\	.	8d\L	.	8f#/L	.	8a/L	.	2r	.	4ff#/	2r	.	4fff#\	.
8r	.	8f#\	.	8a/	.	8dd/	.	.	.	.	.	.	.	.
8D\	.	8d\	.	8f#/	.	8a/	.	.	.	4raa	.	.	4r	.
8r	.	8f#\J	.	8a/J	.	8dd/J	.	.	.	.	.	.	.	.
=166	=166	=166	=166	=166	=166	=166	=166	=166	=166	=166	=166	=166	=166	=166
8G\	.	8d\L	.	8g/L	.	8b/L	.	2r	.	4raa	2r	.	4r	.
8r	.	8g\	.	8b/	.	8dd/	.	.	.	.	.	.	.	.
8G\	.	8d\	.	8g/	.	8b/	.	.	.	8bb/L	.	.	8bb\L	.
8r	.	8g\J	.	8b/J	.	8dd/J	.	.	.	8bb/J	.	.	8bb\J	.
=167	=167	=167	=167	=167	=167	=167	=167	=167	=167	=167	=167	=167	=167	=167
8A\	.	8d\L	.	8f#/L	.	8a/L	.	2r	.	4aa/	2r	.	4aa\	.
8r	.	8f#\	.	8a/	.	8dd/	.	.	.	.	.	.	.	.
8A\	.	8d\	.	8f#/	.	8a/	.	.	.	4ff#/	.	.	4fff#\	.
8r	.	8f#\J	.	8a/J	.	8dd/J	.	.	.	.	.	.	.	.
=168	=168	=168	=168	=168	=168	=168	=168	=168	=168	=168	=168	=168	=168	=168
*rep	*	*	*	*	*	*	*	*	*	*	*	*	*	*
8A\	.	8c#X\L	.	8e/L	.	8a/L	.	2r	.	4ee/	2r	.	4eee\	.
8r	.	8e\	.	8a/	.	8cc#X/	.	.	.	.	.	.	.	.
8A\	.	8c#X\	.	8e/	.	8a/	.	.	.	4aa/	.	.	4aaa\	.
!LO:TX:b:t=VS.	!	!	!	!	!	!	!	!	!	!	!	!	!	!
8r	.	8e\J	.	8a/J	.	8cc#X/J	.	.	.	.	.	.	.	.
*Xrep	*	*Xtremolo	*	*Xtremolo	*	*Xtremolo	*	*	*	*	*	*	*	*
!	!	!	!	!	!	!	!	!	!	!	!	!	!LO:TX:a:t=18	!
!!LO:PB:g=original
=169	=169	=169	=169	=169	=169	=169	=169	=169	=169	=169	=169	=169	=169	=169
4D\	.	(8d\L	.	(8f#/L	.	4dd\	.	2r	.	4dd/	2r	.	4ddd\	.
.	.	8a\	.	8a/	.	.	.	.	.	.	.	.	.	.
4r	.	8d\	.	8f#/	.	4r	.	.	.	4raa	.	.	4r	.
.	.	8a\J)	.	8a/J)	.	.	.	.	.	.	.	.	.	.
*	*	*	*	*	*	*	*	*	*	*v	*v	*	*	*
!	!	!	!	!	!	!LO:TX:a:t=4.	!	!	!	!	!	!	!
=170	=170	=170	=170	=170	=170	=170	=170	=170	=170	=170	=170	=170	=170
*	*	*rep	*	*rep	*	*	*	*	*	*	*	*	*
4D\	.	(8d\L	.	(8f#/L	.	4r	.	2r	.	2r	.	2r	.
.	.	8a\	.	8a/	.	.	.	.	.	.	.	.	.
4r	.	8d\	.	8f#/	.	8r	.	.	.	.	.	.	.
.	.	8a\J)	.	8a/J)	.	8ff#\	.	.	.	.	.	.	.
*	*	*Xrep	*	*Xrep	*	*	*	*	*	*	*	*	*
=171	=171	=171	=171	=171	=171	=171	=171	=171	=171	=171	=171	=171	=171
*	*	*tremolo	*	*tremolo	*	*	*	*	*	*	*	*	*
4AA/	.	(8c#\L	.	(8e/L	.	4.ee\	.	2r	.	2r	.	2r	.
.	.	8a\	.	8a/	.	.	.	.	.	.	.	.	.
4r	.	8c#\	.	8e/	.	.	.	.	.	.	.	.	.
.	.	8a\J)	.	8a/J)	.	8ee\	.	.	.	.	.	.	.
=172	=172	=172	=172	=172	=172	=172	=172	=172	=172	=172	=172	=172	=172
*	*	*rep	*	*rep	*	*	*	*	*	*	*	*	*
4AA/	.	(8c#\L	.	(8e/L	.	8ee\L	.	2r	.	2r	.	2r	.
.	.	8a\	.	8a/	.	8ccc#\	.	.	.	.	.	.	.
4r	.	8c#\	.	8e/	.	8bb\	.	.	.	.	.	.	.
.	.	8a\J)	.	8a/J)	.	8aa\J	.	.	.	.	.	.	.
*	*	*Xrep	*	*Xrep	*	*	*	*	*	*	*	*	*
=173	=173	=173	=173	=173	=173	=173	=173	=173	=173	=173	=173	=173	=173
4BB/	.	(8B\L	.	(8d/L	.	2aa\	.	2r	.	2r	.	2r	.
.	.	8g#X\	.	8g#X/	.	.	.	.	.	.	.	.	.
4r	.	8B\	.	8d/	.	.	.	.	.	.	.	.	.
.	.	8g#X\J)	.	8g#X/J)	.	.	.	.	.	.	.	.	.
=174	=174	=174	=174	=174	=174	=174	=174	=174	=174	=174	=174	=174	=174
*	*	*rep	*	*rep	*	*	*	*	*	*	*	*	*
4BB/	.	(8B\L	.	(8d/L	.	4gg#X\	.	2r	.	2r	.	2r	.
.	.	8g#X\	.	8g#X/	.	.	.	.	.	.	.	.	.
4r	.	8B\	.	8d/	.	4bb\	.	.	.	.	.	.	.
.	.	8g#X\J)	.	8g#X/J)	.	.	.	.	.	.	.	.	.
*	*	*Xrep	*	*Xrep	*	*	*	*	*	*	*	*	*
=175	=175	=175	=175	=175	=175	=175	=175	=175	=175	=175	=175	=175	=175
4E\	.	(8d\L	.	(8g#X/L	.	4bb\	.	2r	.	2r	.	2r	.
.	.	8b\	.	8b/	.	.	.	.	.	.	.	.	.
4r	.	8d\	.	8g#/	.	4gg#X\	.	.	.	.	.	.	.
.	.	8b\J)	.	8b/J)	.	.	.	.	.	.	.	.	.
=176	=176	=176	=176	=176	=176	=176	=176	=176	=176	=176	=176	=176	=176
*	*	*rep	*	*rep	*	*	*	*	*	*	*	*	*
4E\	.	(8d\L	.	(8g#X/L	.	4.ee\	.	2r	.	2r	.	2r	.
.	.	8b\	.	8b/	.	.	.	.	.	.	.	.	.
4r	.	8d\	.	8g#/	.	.	.	.	.	.	.	.	.
.	.	8b\J)	.	8b/J)	.	8dd\	.	.	.	.	.	.	.
*	*	*Xrep	*	*Xrep	*	*	*	*	*	*	*	*	*
!	!	!LO:TX:a:t=4.	!	!	!	!	!	!	!	!	!	!	!
=177	=177	=177	=177	=177	=177	=177	=177	=177	=177	=177	=177	=177	=177
4A\	.	(8c#\L	.	(8a/L	.	4cc#\	.	2r	.	2r	.	2r	.
.	.	8a\	.	8cc#/	.	.	.	.	.	.	.	.	.
4r	.	8c#\	.	8a/	.	4r	.	.	.	.	.	.	.
.	.	8a\J)	.	8cc#/J)	.	.	.	.	.	.	.	.	.
=178	=178	=178	=178	=178	=178	=178	=178	=178	=178	=178	=178	=178	=178
*	*	*rep	*	*rep	*	*	*	*	*	*	*	*	*
4G\	.	(8c#\L	.	(8a/L	.	4r	.	2r	.	2r	.	2r	.
.	.	8a\	.	8cc#/	.	.	.	.	.	.	.	.	.
4r	.	8c#\	.	8a/	.	4aa\	.	.	.	.	.	.	.
.	.	8a\J)	.	8cc#/J)	.	.	.	.	.	.	.	.	.
*	*	*Xrep	*	*Xrep	*	*	*	*	*	*	*	*	*
=179	=179	=179	=179	=179	=179	=179	=179	=179	=179	=179	=179	=179	=179
4F#\	.	(8d\L	.	(8a/L	.	4.aa\	.	2r	.	2r	.	2r	.
.	.	8a\	.	8dd/	.	.	.	.	.	.	.	.	.
4r	.	8d\	.	8a/	.	.	.	.	.	.	.	.	.
.	.	8a\J)	.	8dd/J)	.	8ff#\	.	.	.	.	.	.	.
=180	=180	=180	=180	=180	=180	=180	=180	=180	=180	=180	=180	=180	=180
*rep	*	*rep	*	*rep	*	*	*	*	*	*	*	*	*
!	!	!	!	!	!	!	!	!	!	!	!	!LO:TX:a:t=19.	!
4F#\	.	(8d\L	.	(8a/L	.	4dd\	.	2r	.	2r	.	2r	.
.	.	8a\	.	8dd/	.	.	.	.	.	.	.	.	.
4r	.	8d\	.	8a/	.	4dd\	.	.	.	.	.	.	.
.	.	8a\J)	.	8dd/J)	.	.	.	.	.	.	.	.	.
*Xrep	*	*Xrep	*	*Xrep	*	*	*	*	*	*	*	*	*
=181	=181	=181	=181	=181	=181	=181	=181	=181	=181	=181	=181	=181	=181
4G\	.	(8d\L	.	(8b/L	.	2bb\	.	2r	.	2r	.	2r	.
.	.	8b\	.	8dd/	.	.	.	.	.	.	.	.	.
4r	.	8d\	.	8b/	.	.	.	.	.	.	.	.	.
.	.	8b\J)	.	8dd/J)	.	.	.	.	.	.	.	.	.
=182	=182	=182	=182	=182	=182	=182	=182	=182	=182	=182	=182	=182	=182
4E\	.	(8e\L	.	(8g/L	.	8gg\	.	2r	.	2r	.	2r	.
.	.	8g\	.	8b/	.	8r	.	.	.	.	.	.	.
4r	.	8e\	.	8g/	.	4bb\	.	.	.	.	.	.	.
.	.	8g\J)	.	8b/J)	.	.	.	.	.	.	.	.	.
*	*	*Xtremolo	*	*	*	*	*	*	*	*	*	*	*
=183	=183	=183	=183	=183	=183	=183	=183	=183	=183	=183	=183	=183	=183
4AA/	.	(8a\L	.	(8f#/L	.	4aa\	.	2r	.	2r	.	2r	.
.	.	8f#\	.	8a/	.	.	.	.	.	.	.	.	.
4r	.	8d\	.	8f#/	.	4ff#\	.	.	.	.	.	.	.
.	.	8f#\J)	.	8a/J)	.	.	.	.	.	.	.	.	.
=184	=184	=184	=184	=184	=184	=184	=184	=184	=184	=184	=184	=184	=184
*	*	*tremolo	*	*	*	*	*	*	*	*	*	*	*
4AA/	.	(8c#\L	.	(8e/L	.	4.ee\	.	2r	.	2r	.	2r	.
.	.	8a\	.	8a/	.	.	.	.	.	.	.	.	.
!LO:TX:a:t=4.	!	!	!	!	!	!	!	!	!	!	!	!	!
4r	.	8c#\	.	8e/	.	.	.	.	.	.	.	.	.
.	.	8a\J)	.	8a/J)	.	8aa\	.	.	.	.	.	.	.
=185	=185	=185	=185	=185	=185	=185	=185	=185	=185	=185	=185	=185	=185
4D/	.	(8d\L	.	(8f#/L	.	4ff#\	.	2r	.	2r	.	2r	.
.	.	8f#\	.	8a/	.	.	.	.	.	.	.	.	.
4r	.	8d\	.	8f#/	.	4r	.	.	.	.	.	.	.
.	.	8f#\J)	.	8a/J)	.	.	.	.	.	.	.	.	.
=186	=186	=186	=186	=186	=186	=186	=186	=186	=186	=186	=186	=186	=186
4G\	.	(8d\L	.	(8g/L	.	4r	.	2r	.	2r	.	2r	.
.	.	8g\	.	8b/	.	.	.	.	.	.	.	.	.
4r	.	8d\	.	8g/	.	8ddd\L	.	.	.	.	.	.	.
.	.	8g\J)	.	8b/J)	.	8bb\J	.	.	.	.	.	.	.
=187	=187	=187	=187	=187	=187	=187	=187	=187	=187	=187	=187	=187	=187
4A\	.	(8d\L	.	(8f#/L	.	4.aa\	.	2r	.	2r	.	2r	.
.	.	8f#\	.	8a/	.	.	.	.	.	.	.	.	.
4r	.	8d\	.	8f#/	.	.	.	.	.	.	.	.	.
.	.	8f#\J)	.	8a/J)	.	8ff#\	.	.	.	.	.	.	.
=188	=188	=188	=188	=188	=188	=188	=188	=188	=188	=188	=188	=188	=188
4AA/	.	(8c#\L	.	(8e/L	.	8aa\L	.	2r	.	2r	.	2r	.
.	.	8a\	.	8a/	.	8gg\	.	.	.	.	.	.	.
4r	.	8c#\	.	8e/	.	8ff#\	.	.	.	.	.	.	.
.	.	8a\J)	.	8a/J)	.	8ee\J	.	.	.	.	.	.	.
*	*	*Xtremolo	*	*Xtremolo	*	*	*	*	*	*	*	*	*
!!LO:LB:g=original
=189	=189	=189	=189	=189	=189	=189	=189	=189	=189	=189	=189	=189	=189
*	*	*	*	*tremolo	*	*tremolo	*	*	*	*	*	*	*
!	!LO:DY:rj	!	!LO:DY:rj	!	!LO:DY:rj	!	!LO:DY:rj	!	!LO:DY:rj	!	!LO:DY:rj	!	!LO:DY:rj
4.D/	ff	4.d\	ff	16A/LL 16f#	ff	16f#\LL 16dd	ff	8d\L 8f#	ff	8a\L 8ff#	ff	8ddd\L	ff
.	.	.	.	16A/ 16f#	.	16f#\ 16dd	.	.	.	.	.	.	.
.	.	.	.	16A/ 16f#	.	16f#\ 16dd	.	16d\L 16f#	.	16a\L 16ff#	.	16ddd\L	.
.	.	.	.	16A/ 16f#	.	16f#\ 16dd	.	16d\J 16f#	.	16a\J 16ff#	.	16ddd\J	.
.	.	.	.	16A/ 16f#	.	16f#\ 16dd	.	8d\ 8f#	.	8a\ 8ff#	.	8ddd\	.
.	.	.	.	16A/ 16f#	.	16f#\ 16dd	.	.	.	.	.	.	.
8AA/	.	8A\	.	16A/ 16f#	.	16f#\ 16dd	.	8d\J 8f#	.	8a\J 8ff#	.	8ddd\J	.
.	.	.	.	16A/JJ 16f#	.	16f#\JJ 16dd	.	.	.	.	.	.	.
=190	=190	=190	=190	=190	=190	=190	=190	=190	=190	=190	=190	=190	=190
*	*	*	*	*rep	*	*rep	*	*tremolo	*	*tremolo	*	*tremolo	*
8D/L	.	8d\L	.	16A/LL 16f#	.	16f#\LL 16dd	.	8d\L 8f#	.	8a\L 8ff#	.	8ddd\L	.
.	.	.	.	16A/ 16f#	.	16f#\ 16dd	.	.	.	.	.	.	.
8E/	.	8e\	.	16A/ 16f#	.	16f#\ 16dd	.	8d\ 8f#	.	8a\ 8ff#	.	8ddd\	.
.	.	.	.	16A/ 16f#	.	16f#\ 16dd	.	.	.	.	.	.	.
8F#/	.	8f#\	.	16A/ 16f#	.	16f#\ 16dd	.	8d\ 8f#	.	8a\ 8ff#	.	8ddd\	.
.	.	.	.	16A/ 16f#	.	16f#\ 16dd	.	.	.	.	.	.	.
8D/J	.	8d\J	.	16A/ 16f#	.	16f#\ 16dd	.	8d\J 8f#	.	8a\J 8ff#	.	8ddd\J	.
.	.	.	.	16A/JJ 16f#	.	16f#\JJ 16dd	.	.	.	.	.	.	.
*	*	*	*	*Xrep	*	*Xrep	*	*Xtremolo	*	*Xtremolo	*	*Xtremolo	*
=191	=191	=191	=191	=191	=191	=191	=191	=191	=191	=191	=191	=191	=191
*	*	*	*	*	*	*rep	*	*	*	*	*	*	*
!	!	!	!	!	!	!	!	!	!	!	!	!LO:TX:a:t=20	!
4.BB/	.	4.B/	.	16B/LL	.	16f#\LL 16dd	.	8d\L 8f#	.	8b\L 8ff#	.	8ddd\L	.
.	.	.	.	16B/	.	16f#\ 16dd	.	.	.	.	.	.	.
.	.	.	.	16B/	.	16f#\ 16dd	.	16d\L 16f#	.	16b\L 16ff#	.	16ddd\L	.
.	.	.	.	16B/	.	16f#\ 16dd	.	16d\J 16f#	.	16b\J 16ff#	.	16ddd\J	.
.	.	.	.	16B/	.	16f#\ 16dd	.	8d\ 8f#	.	8b\ 8ff#	.	8ddd\	.
.	.	.	.	16B/	.	16f#\ 16dd	.	.	.	.	.	.	.
8FF#/	.	8F#/	.	16B/	.	16f#\ 16dd	.	8d\J 8f#	.	8b\J 8ff#	.	8ddd\J	.
.	.	.	.	16B/JJ	.	16f#\JJ 16dd	.	.	.	.	.	.	.
*	*	*	*	*	*	*Xrep	*	*	*	*	*	*	*
=192	=192	=192	=192	=192	=192	=192	=192	=192	=192	=192	=192	=192	=192
*	*	*	*	*rep	*	*rep	*	*tremolo	*	*tremolo	*	*tremolo	*
8BB/L	.	8B/L	.	16B/LL	.	16f#\LL 16dd	.	8d\L 8f#	.	8b\L 8ff#	.	8ddd\L	.
.	.	.	.	16B/	.	16f#\ 16dd	.	.	.	.	.	.	.
8C#/	.	8c#/	.	16B/	.	16f#\ 16dd	.	8d\ 8f#	.	8b\ 8ff#	.	8ddd\	.
.	.	.	.	16B/	.	16f#\ 16dd	.	.	.	.	.	.	.
8D/	.	8d/	.	16B/	.	16f#\ 16dd	.	8d\ 8f#	.	8b\ 8ff#	.	8ddd\	.
.	.	.	.	16B/	.	16f#\ 16dd	.	.	.	.	.	.	.
8BB/J	.	8B/J	.	16B/	.	16f#\ 16dd	.	8d\J 8f#	.	8b\J 8ff#	.	8ddd\J	.
.	.	.	.	16B/JJ	.	16f#\JJ 16dd	.	.	.	.	.	.	.
*	*	*	*	*Xrep	*	*Xrep	*	*Xtremolo	*	*Xtremolo	*	*Xtremolo	*
=193	=193	=193	=193	=193	=193	=193	=193	=193	=193	=193	=193	=193	=193
*^	*	*	*	*	*	*	*	*^	*	*	*	*	*
*tremolo	*tremolo	*	*tremolo	*	*	*	*	*	*	*	*	*	*	*	*
16GG/LL	8GG\L	.	16e\LL	.	16b/LL	.	16ee\LL	.	8g/L	8e\L	.	8b\L 8ee	.	8eee\L	.
16GG/	.	.	16e\	.	16b/	.	16ee\	.	.	.	.	.	.	.	.
16GG/	8GG\J	.	16e\	.	16b/	.	16ee\	.	8g/	8e\	.	8b\ 8ee	.	8eee\	.
16GG/JJ	.	.	16e\JJ	.	16b/	.	16ee\JJ	.	.	.	.	.	.	.	.
16GG#X/LL	8GG#\L	.	16d\LL	.	16b/	.	16ee#X\LL	.	8d/	8d\	.	8b\ 8dd	.	8eee#X\	.
16GG#/	.	.	16d\	.	16b/	.	16ee#\	.	.	.	.	.	.	.	.
16GG#/	8GG#\J	.	16d\	.	16b/	.	16ee#\	.	8d/J	8d\J	.	8b\J 8dd	.	8eee#\J	.
16GG#/JJ	.	.	16d\JJ	.	16b/JJ	.	16ee#\JJ	.	.	.	.	.	.	.	.
=194	=194	=194	=194	=194	=194	=194	=194	=194	=194	=194	=194	=194	=194	=194	=194
16AA/LL	8AA\L	.	16f#\LL	.	16dd\LL	.	16ff#\LL	.	8f#/L	8d\L	.	8dd\L 8ff#	.	8fff#\L	.
16AA/	.	.	16f#\	.	16dd\	.	16ff#\	.	.	.	.	.	.	.	.
16AA/	8AA\J	.	16f#\	.	16dd\	.	16ff#\	.	8f#/	8d\	.	8dd\ 8ff#	.	8fff#\	.
16AA/JJ	.	.	16f#\JJ	.	16dd\	.	16ff#\JJ	.	.	.	.	.	.	.	.
16BB-X/LL	8BB-\L	.	16g\LL	.	16dd\	.	16gg\LL	.	8g/	8d\	.	8dd\ 8gg	.	8ggg\	.
16BB-/	.	.	16g\	.	16dd\	.	16gg\	.	.	.	.	.	.	.	.
16BB-/	8BB-\J	.	16g\	.	16dd\	.	16gg\	.	8g/J	8d\J	.	8dd\J 8gg	.	8ggg\J	.
16BB-/JJ	.	.	16g\JJ	.	16dd\JJ	.	16gg\JJ	.	.	.	.	.	.	.	.
=195	=195	=195	=195	=195	=195	=195	=195	=195	=195	=195	=195	=195	=195	=195	=195
*	*	*	*	*	*rep	*	*	*	*	*	*	*	*	*	*
16BBn/LL	8BBn\L	.	16e#X\LL	.	16dd\LL	.	16gg#X\LL	.	8d/L	8d\L	.	8dd\L 8ee#X	.	8ggg#X\L	.
16BB/	.	.	16e#\	.	16dd\	.	16gg#\	.	.	.	.	.	.	.	.
16BB/	8BB\	.	16e#\	.	16dd\	.	16gg#\	.	16d/L	16d\L	.	16dd\L 16ee#	.	16ggg#\L	.
16BB/	.	.	16e#\	.	16dd\	.	16gg#\	.	16d/J	16d\J	.	16dd\J 16ee#	.	16ggg#\J	.
16BB/	8BB\	.	16e#\	.	16dd\	.	16gg#\	.	8d/	8d\	.	8dd\ 8ee#	.	8ggg#\	.
16BB/	.	.	16e#\	.	16dd\	.	16gg#\	.	.	.	.	.	.	.	.
16BB/	8BB\J	.	16e#\	.	16dd\	.	16gg#\	.	8d/J	8d\J	.	8dd\J 8ee#	.	8ggg#\J	.
16BB/JJ	.	.	16e#\JJ	.	16dd\JJ	.	16gg#\JJ	.	.	.	.	.	.	.	.
*	*	*	*	*	*Xrep	*	*	*	*	*	*	*	*	*	*
*	*	*	*	*	*	*	*	*	*v	*v	*	*	*	*	*
=196	=196	=196	=196	=196	=196	=196	=196	=196	=196	=196	=196	=196	=196	=196
*	*	*	*	*	*	*	*	*	*	*	*	*	*tremolo	*
16AA/LL	8AA\L	.	16f#\LL	.	16dd\LL	.	16aa\LL	.	8d\L 8f#	.	8dd\L 8ff#	.	8aaa\L	.
16AA/	.	.	16f#\	.	16dd\	.	16aa\	.	.	.	.	.	.	.
16AA/	8AA\	.	16f#\	.	16dd\	.	16aa\	.	8d\ 8f#	.	8dd\ 8ff#	.	8aaa\	.
16AA/	.	.	16f#\JJ	.	16dd\JJ	.	16aa\	.	.	.	.	.	.	.
16AA/	8AA\	.	16en\LL	.	16cc#\LL	.	16aa\	.	8A\ 8e	.	8cc#\ 8ee	.	8aaa\	.
16AA/	.	.	16e\	.	16cc#\	.	16aa\	.	.	.	.	.	.	.
16AA/	8AA\J	.	16e\	.	16cc#\	.	16aa\	.	8A\J 8e	.	8cc#\J 8ee	.	8aaa\J	.
16AA/JJ	.	.	16e\JJ	.	16cc#\JJ	.	16aa\JJ	.	.	.	.	.	.	.
*	*	*	*Xtremolo	*	*	*	*	*	*	*	*	*	*Xtremolo	*
*v	*v	*	*	*	*	*	*	*	*	*	*	*	*	*
=197	=197	=197	=197	=197	=197	=197	=197	=197	=197	=197	=197	=197	=197
*Xtremolo	*	*	*	*	*	*	*	*	*	*	*	*	*
4.D\	.	4.d\	.	16A/LL 16f#	.	16f#\LL 16dd	.	8d\L 8f#	.	8a\L 8ff#	.	8ddd\L	.
.	.	.	.	16A/ 16f#	.	16f#\ 16dd	.	.	.	.	.	.	.
.	.	.	.	16A/ 16f#	.	16f#\ 16dd	.	16d\L 16f#	.	16a\L 16ff#	.	16ddd\L	.
.	.	.	.	16A/ 16f#	.	16f#\ 16dd	.	16d\J 16f#	.	16a\J 16ff#	.	16ddd\J	.
.	.	.	.	16A/ 16f#	.	16f#\ 16dd	.	8d\ 8f#	.	8a\ 8ff#	.	8ddd\	.
.	.	.	.	16A/ 16f#	.	16f#\ 16dd	.	.	.	.	.	.	.
8AA/	.	8A/	.	16A/ 16f#	.	16f#\ 16dd	.	8d\J 8f#	.	8a\J 8ff#	.	8ddd\J	.
.	.	.	.	16A/JJ 16f#	.	16f#\JJ 16dd	.	.	.	.	.	.	.
=198	=198	=198	=198	=198	=198	=198	=198	=198	=198	=198	=198	=198	=198
*	*	*	*	*rep	*	*rep	*	*tremolo	*	*tremolo	*	*tremolo	*
8D\L	.	8d\L	.	16A/LL 16f#	.	16f#\LL 16dd	.	8d\L 8f#	.	8a\L 8ff#	.	8ddd\L	.
.	.	.	.	16A/ 16f#	.	16f#\ 16dd	.	.	.	.	.	.	.
8E\	.	8e\	.	16A/ 16f#	.	16f#\ 16dd	.	8d\ 8f#	.	8a\ 8ff#	.	8ddd\	.
.	.	.	.	16A/ 16f#	.	16f#\ 16dd	.	.	.	.	.	.	.
8F#\	.	8f#\	.	16A/ 16f#	.	16f#\ 16dd	.	8d\ 8f#	.	8a\ 8ff#	.	8ddd\	.
.	.	.	.	16A/ 16f#	.	16f#\ 16dd	.	.	.	.	.	.	.
8D\J	.	8d\J	.	16A/ 16f#	.	16f#\ 16dd	.	8d\J 8f#	.	8a\J 8ff#	.	8ddd\J	.
.	.	.	.	16A/JJ 16f#	.	16f#\JJ 16dd	.	.	.	.	.	.	.
*	*	*	*	*Xrep	*	*Xrep	*	*Xtremolo	*	*Xtremolo	*	*Xtremolo	*
=199	=199	=199	=199	=199	=199	=199	=199	=199	=199	=199	=199	=199	=199
*	*	*	*	*	*	*rep	*	*	*	*	*	*	*
4.BB/	.	4.B/	.	16B/LL	.	16f#\LL 16dd	.	8d\L 8f#	.	8b\L 8ff#	.	8ddd\L	.
.	.	.	.	16B/	.	16f#\ 16dd	.	.	.	.	.	.	.
.	.	.	.	16B/	.	16f#\ 16dd	.	16d\L 16f#	.	16b\L 16ff#	.	16ddd\L	.
.	.	.	.	16B/	.	16f#\ 16dd	.	16d\J 16f#	.	16b\J 16ff#	.	16ddd\J	.
.	.	.	.	16B/	.	16f#\ 16dd	.	8d\ 8f#	.	8b\ 8ff#	.	8ddd\	.
.	.	.	.	16B/	.	16f#\ 16dd	.	.	.	.	.	.	.
8FF#/	.	8F#/	.	16B/	.	16f#\ 16dd	.	8d\J 8f#	.	8b\J 8ff#	.	8ddd\J	.
.	.	.	.	16B/JJ	.	16f#\JJ 16dd	.	.	.	.	.	.	.
*	*	*	*	*	*	*Xrep	*	*	*	*	*	*	*
=200	=200	=200	=200	=200	=200	=200	=200	=200	=200	=200	=200	=200	=200
*	*	*	*	*rep	*	*rep	*	*tremolo	*	*tremolo	*	*tremolo	*
8BB/L	.	8B/L	.	16B/LL	.	16f#\LL 16dd	.	8d\L 8f#	.	8b\L 8ff#	.	8ddd\L	.
.	.	.	.	16B/	.	16f#\ 16dd	.	.	.	.	.	.	.
8C#/	.	8c#/	.	16B/	.	16f#\ 16dd	.	8d\ 8f#	.	8b\ 8ff#	.	8ddd\	.
.	.	.	.	16B/	.	16f#\ 16dd	.	.	.	.	.	.	.
8D/	.	8d/	.	16B/	.	16f#\ 16dd	.	8d\ 8f#	.	8b\ 8ff#	.	8ddd\	.
.	.	.	.	16B/	.	16f#\ 16dd	.	.	.	.	.	.	.
!	!	!	!	!	!	!	!	!	!	!	!	!LO:TX:a:t=21	!
8BB/J	.	8B/J	.	16B/	.	16f#\ 16dd	.	8d\J 8f#	.	8b\J 8ff#	.	8ddd\J	.
.	.	.	.	16B/JJ	.	16f#\JJ 16dd	.	.	.	.	.	.	.
*	*	*	*	*Xrep	*	*Xrep	*	*Xtremolo	*	*Xtremolo	*	*Xtremolo	*
=201	=201	=201	=201	=201	=201	=201	=201	=201	=201	=201	=201	=201	=201
*^	*	*	*	*	*	*	*	*^	*	*	*	*	*
*tremolo	*tremolo	*	*tremolo	*	*	*	*	*	*	*	*	*	*	*	*
16GG/LL	8GG\L	.	16e\LL	.	16b\LL	.	16ee\LL	.	8g/L	8e\L	.	8b\L 8ee	.	8eee\L	.
16GG/	.	.	16e\	.	16b\	.	16ee\	.	.	.	.	.	.	.	.
16GG/	8GG\J	.	16e\	.	16b\	.	16ee\	.	8g/	8e\	.	8b\ 8ee	.	8eee\	.
16GG/JJ	.	.	16e\JJ	.	16b\	.	16ee\JJ	.	.	.	.	.	.	.	.
16GG#X/LL	8GG#\L	.	16d\LL	.	16b\	.	16ee#X\LL	.	8d/	8d\	.	8b\ 8dd	.	8eee#X\	.
16GG#/	.	.	16d\	.	16b\	.	16ee#\	.	.	.	.	.	.	.	.
16GG#/	8GG#\J	.	16d\	.	16b\	.	16ee#\	.	8d/J	8d\J	.	8b\J 8dd	.	8eee#\J	.
16GG#/JJ	.	.	16d\JJ	.	16b\JJ	.	16ee#\JJ	.	.	.	.	.	.	.	.
=202	=202	=202	=202	=202	=202	=202	=202	=202	=202	=202	=202	=202	=202	=202	=202
16AA/LL	8AA\L	.	16f#\LL	.	16dd\LL	.	16ff#\LL	.	8f#/L	8d\L	.	8dd\L 8ff#	.	8fff#\L	.
16AA/	.	.	16f#\	.	16dd\	.	16ff#\	.	.	.	.	.	.	.	.
16AA/	8AA\J	.	16f#\	.	16dd\	.	16ff#\	.	8f#/	8d\	.	8dd\ 8ff#	.	8fff#\	.
16AA/JJ	.	.	16f#\JJ	.	16dd\	.	16ff#\JJ	.	.	.	.	.	.	.	.
16BB-X/LL	8BB-\L	.	16g\LL	.	16dd\	.	16gg\LL	.	8g/	8d\	.	8dd\ 8gg	.	8ggg\	.
16BB-/	.	.	16g\	.	16dd\	.	16gg\	.	.	.	.	.	.	.	.
16BB-/	8BB-\J	.	16g\	.	16dd\	.	16gg\	.	8g/J	8d\J	.	8dd\J 8gg	.	8ggg\J	.
16BB-/JJ	.	.	16g\JJ	.	16dd\JJ	.	16gg\JJ	.	.	.	.	.	.	.	.
=203	=203	=203	=203	=203	=203	=203	=203	=203	=203	=203	=203	=203	=203	=203	=203
*	*	*	*	*	*rep	*	*	*	*	*	*	*	*	*	*
16BBn/LL	8BBn\L	.	16e#X\LL	.	16dd\LL	.	16gg#X\LL	.	8d/L	8d\L	.	8dd\L 8ee#X	.	8ggg#X\L	.
16BB/	.	.	16e#\	.	16dd\	.	16gg#\	.	.	.	.	.	.	.	.
16BB/	8BB\	.	16e#\	.	16dd\	.	16gg#\	.	16d/L	16d\L	.	16dd\L 16ee#	.	16ggg#\L	.
16BB/	.	.	16e#\	.	16dd\	.	16gg#\	.	16d/J	16d\J	.	16dd\J 16ee#	.	16ggg#\J	.
16BB/	8BB\	.	16e#\	.	16dd\	.	16gg#\	.	8d/	8d\	.	8dd\ 8ee#	.	8ggg#\	.
16BB/	.	.	16e#\	.	16dd\	.	16gg#\	.	.	.	.	.	.	.	.
16BB/	8BB\J	.	16e#\	.	16dd\	.	16gg#\	.	8d/J	8d\J	.	8dd\J 8ee#	.	8ggg#\J	.
16BB/JJ	.	.	16e#\JJ	.	16dd\JJ	.	16gg#\JJ	.	.	.	.	.	.	.	.
*	*	*	*	*	*Xrep	*	*	*	*	*	*	*	*	*	*
*	*	*	*	*	*	*	*	*	*v	*v	*	*	*	*	*
=204	=204	=204	=204	=204	=204	=204	=204	=204	=204	=204	=204	=204	=204	=204
*	*	*	*	*	*	*	*	*	*	*	*	*	*tremolo	*
16AA/LL	8AA\L	.	16f#\LL	.	16dd\LL	.	16aa\LL	.	8d\L 8f#	.	8dd\L 8ff#	.	8aaa\L	.
16AA/	.	.	16f#\	.	16dd\	.	16aa\	.	.	.	.	.	.	.
16AA/	8AA\	.	16f#\	.	16dd\	.	16aa\	.	8d\ 8f#	.	8dd\ 8ff#	.	8aaa\	.
16AA/	.	.	16f#\JJ	.	16dd\JJ	.	16aa\	.	.	.	.	.	.	.
16AA/	8AA\	.	16en\LL	.	16cc#\LL	.	16aa\	.	8A\ 8e	.	8cc#\ 8een	.	8aaa\	.
16AA/	.	.	16e\	.	16cc#\	.	16aa\	.	.	.	.	.	.	.
16AA/	8AA\J	.	16e\	.	16cc#\	.	16aa\	.	8A\J 8e	.	8cc#\J 8ee	.	8aaa\J	.
16AA/JJ	.	.	16e\JJ	.	16cc#\JJ	.	16aa\JJ	.	.	.	.	.	.	.
*	*	*	*Xtremolo	*	*Xtremolo	*	*Xtremolo	*	*	*	*	*	*Xtremolo	*
*v	*v	*	*	*	*	*	*	*	*	*	*	*	*	*
!!LO:PB:g=original
=205	=205	=205	=205	=205	=205	=205	=205	=205	=205	=205	=205	=205	=205
*Xtremolo	*	*	*	*	*	*	*	*	*	*	*	*	*
8D\	.	8f#\	.	8dd\	.	8dd\	.	8d\L 8f#	.	8dd\L 8ff#	.	8ddd\	.
8r	.	8r	.	8r	.	8r	.	8d\ 8f#	.	8dd\ 8ff#	.	8r	.
4r	.	4r	.	4r	.	4r	.	8A\ 8e	.	8cc#\ 8ee	.	4r	.
.	.	.	.	.	.	.	.	8A\J 8e	.	8cc#\J 8ee	.	.	.
*	*	*	*	*	*	*	*	*	*	*	*	*	*
=206	=206	=206	=206	=206	=206	=206	=206	=206	=206	=206	=206	=206	=206
*	*	*	*	*	*	*	*	*rep	*	*	*	*	*
8r	.	8r	.	8r	.	8r	.	8d\L 8f#	.	8dd\L 8ff#	.	8r	.
8D/L	.	8d\L	.	8f#\L 8dd	.	8a\L 8ff#	.	8d\ 8f#	.	8dd\ 8ff#	.	8fff#\L	.
8AA/	.	8A\	.	8e\ 8cc#	.	8a\ 8ee	.	8A\ 8e	.	8cc#\ 8ee	.	8eee\	.
8AA/J	.	8A\J	.	8e\J 8cc#	.	8a\J 8aa	.	8A\J 8e	.	8cc#\J 8aa	.	8aaa\J	.
*	*	*	*	*	*	*	*	*Xrep	*	*	*	*	*
=207	=207	=207	=207	=207	=207	=207	=207	=207	=207	=207	=207	=207	=207
*	*	*	*	*	*	*	*	*rep	*	*	*	*	*
8D\	.	8d\	.	8f#\ 8dd	.	8a\ 8ff#	.	8d\L 8f#	.	8dd\L 8ff#	.	8fff#\	.
8r	.	8r	.	8r	.	8r	.	8d\ 8f#	.	8dd\ 8ff#	.	8r	.
4r	.	4r	.	4r	.	4r	.	8A\ 8e	.	8cc#\ 8ee	.	4r	.
.	.	.	.	.	.	.	.	8A\J 8e	.	8cc#\J 8ee	.	.	.
*	*	*	*	*	*	*	*	*Xrep	*	*	*	*	*
=208	=208	=208	=208	=208	=208	=208	=208	=208	=208	=208	=208	=208	=208
*	*	*	*	*	*	*	*	*rep	*	*	*	*	*
8r	.	8r	.	8r	.	8r	.	8d\L 8f#	.	8dd\L 8ff#	.	8r	.
8D/L	.	8d\L	.	8f#\L 8dd	.	8a\L 8ff#	.	8d\ 8f#	.	8dd\ 8ff#	.	8fff#\L	.
8AA/	.	8A\	.	8e\ 8cc#	.	8a\ 8ee	.	8A\ 8e	.	8cc#\ 8ee	.	8eee\	.
8AA/J	.	8A\J	.	8e\J 8cc#	.	8a\J 8aa	.	8A\J 8e	.	8cc#\J 8aa	.	8aaa\J	.
*	*	*	*	*	*	*	*	*Xrep	*	*	*	*	*
=209	=209	=209	=209	=209	=209	=209	=209	=209	=209	=209	=209	=209	=209
*	*	*	*	*	*	*tremolo	*	*	*	*	*	*	*
8D\L	.	8d\L	.	8f#\L 8dd	.	16f#\LL 16dd	.	8d\L 8f#	.	8dd\L 8ff#	.	8ddd\L	.
.	.	.	.	.	.	16f#\ 16dd	.	.	.	.	.	.	.
8F#\	.	8f#\	.	16A\L 16f#	.	16f#\ 16dd	.	16d\L 16f#	.	16f#\L 16dd	.	16ddd\L	.
.	.	.	.	16A\JJ 16f#	.	16f#\ 16dd	.	16d\J 16f#	.	16f#\J 16dd	.	16ddd\J	.
*	*	*	*	*tremolo	*	*	*	*	*	*	*	*	*
8A\	.	8a\	.	16A/LL 16f#	.	16f#\ 16dd	.	8d\ 8f#	.	8f#\ 8dd	.	8ddd\	.
.	.	.	.	16A/ 16f#	.	16f#\ 16dd	.	.	.	.	.	.	.
8F#\J	.	8f#\J	.	16A/ 16f#	.	16f#\ 16dd	.	8d\J 8f#	.	8f#\J 8dd	.	8ddd\J	.
.	.	.	.	16A/JJ 16f#	.	16f#\JJ 16dd	.	.	.	.	.	.	.
=210	=210	=210	=210	=210	=210	=210	=210	=210	=210	=210	=210	=210	=210
*	*	*	*	*	*	*rep	*	*tremolo	*	*tremolo	*	*tremolo	*
8D/L	.	8d\L	.	16A/LL 16f#	.	16f#\LL 16dd	.	8d\L 8f#	.	8f#\L 8dd	.	8ddd\L	.
.	.	.	.	16A/ 16f#	.	16f#\ 16dd	.	.	.	.	.	.	.
8AA/	.	8A\	.	16A/ 16f#	.	16f#\ 16dd	.	8d\ 8f#	.	8f#\ 8dd	.	8ddd\	.
.	.	.	.	16A/ 16f#	.	16f#\ 16dd	.	.	.	.	.	.	.
8D/	.	8d\	.	16A/ 16f#	.	16f#\ 16dd	.	8d\ 8f#	.	8f#\ 8dd	.	8ddd\	.
.	.	.	.	16A/ 16f#	.	16f#\ 16dd	.	.	.	.	.	.	.
8AA/J	.	8A\J	.	16A/ 16f#	.	16f#\ 16dd	.	8d\J 8f#	.	8f#\J 8dd	.	8ddd\J	.
.	.	.	.	16A/JJ 16f#	.	16f#\JJ 16dd	.	.	.	.	.	.	.
*	*	*	*	*	*	*Xrep	*	*Xtremolo	*	*Xtremolo	*	*Xtremolo	*
=211	=211	=211	=211	=211	=211	=211	=211	=211	=211	=211	=211	=211	=211
*	*	*	*	*rep	*	*rep	*	*	*	*	*	*	*
!	!	!	!	!	!	!	!	!	!	!	!	!LO:TX:a:t=22	!
8D\L	.	8d\L	.	16A/LL 16f#	.	16f#\LL 16dd	.	8d\L 8f#	.	8a\L 8ff#	.	8ddd\L	.
.	.	.	.	16A/ 16f#	.	16f#\ 16dd	.	.	.	.	.	.	.
8F#\	.	8f#\	.	16A/ 16f#	.	16f#\ 16dd	.	16d\L 16f#	.	16a\L 16ff#	.	16ddd\L	.
.	.	.	.	16A/ 16f#	.	16f#\ 16dd	.	16d\J 16f#	.	16a\J 16ff#	.	16ddd\J	.
8A\	.	8a\	.	16A/ 16f#	.	16f#\ 16dd	.	8d\ 8f#	.	8a\ 8ff#	.	8ddd\	.
.	.	.	.	16A/ 16f#	.	16f#\ 16dd	.	.	.	.	.	.	.
8F#\J	.	8f#\J	.	16A/ 16f#	.	16f#\ 16dd	.	8d\J 8f#	.	8a\J 8ff#	.	8ddd\J	.
.	.	.	.	16A/JJ 16f#	.	16f#\JJ 16dd	.	.	.	.	.	.	.
*	*	*	*	*Xrep	*	*Xrep	*	*	*	*	*	*	*
=212	=212	=212	=212	=212	=212	=212	=212	=212	=212	=212	=212	=212	=212
*	*	*	*	*rep	*	*rep	*	*tremolo	*	*tremolo	*	*tremolo	*
8D\L	.	8d\L	.	16A/LL 16f#	.	16f#\LL 16dd	.	8d\L 8f#	.	8a\L 8ff#	.	8ddd\L	.
.	.	.	.	16A/ 16f#	.	16f#\ 16dd	.	.	.	.	.	.	.
8AA\	.	8A\	.	16A/ 16f#	.	16f#\ 16dd	.	8d\ 8f#	.	8a\ 8ff#	.	8ddd\	.
.	.	.	.	16A/ 16f#	.	16f#\ 16dd	.	.	.	.	.	.	.
8D\	.	8d\	.	16A/ 16f#	.	16f#\ 16dd	.	8d\ 8f#	.	8a\ 8ff#	.	8ddd\	.
.	.	.	.	16A/ 16f#	.	16f#\ 16dd	.	.	.	.	.	.	.
8AA\J	.	8A\J	.	16A/ 16f#	.	16f#\ 16dd	.	8d\J 8f#	.	8a\J 8ff#	.	8ddd\J	.
.	.	.	.	16A/JJ 16f#	.	16f#\JJ 16dd	.	.	.	.	.	.	.
*	*	*	*	*Xrep	*	*Xrep	*	*	*	*	*	*	*
*	*	*	*	*Xtremolo	*	*Xtremolo	*	*Xtremolo	*	*Xtremolo	*	*Xtremolo	*
=213	=213	=213	=213	=213	=213	=213	=213	=213	=213	=213	=213	=213	=213
4D\	.	4d\	.	4A/ 4f#	.	4f#/ 4dd	.	4d\ 4f#	.	4a\ 4ff#	.	4ddd\	.
4d\	.	8.r	.	8.r	.	8.r	.	8.r	.	8.r	.	8.r	.
.	.	16F#\ 16d	.	16A/ 16f#	.	16f#/ 16dd	.	16d\ 16f#	.	16a\ 16ff#	.	16ddd\	.
=214	=214	=214	=214	=214	=214	=214	=214	=214	=214	=214	=214	=214	=214
4A\	.	4F#\ 4d	.	4A/ 4f#	.	4f#/ 4dd	.	4d\ 4f#	.	4a\ 4ff#	.	4ddd\	.
4F#\	.	4F#\ 4d	.	4A/ 4f#	.	4f#/ 4dd	.	4d\ 4f#	.	4a\ 4ff#	.	4ddd\	.
=215	=215	=215	=215	=215	=215	=215	=215	=215	=215	=215	=215	=215	=215
4D\	.	4F#\ 4d	.	4A/ 4f#	.	4f#/ 4dd	.	4d\ 4f#	.	4a\ 4ff#	.	4ddd\	.
4r	.	4r	.	4r	.	4r	.	4r	.	4r	.	4r	.
=216	=216	=216	=216	=216	=216	=216	=216	=216	=216	=216	=216	=216	=216
!LO:TX:b:t=Fine.	!	!	!	!	!	!	!	!	!	!	!	!LO:TX:a:t=23.	!
2r;>	.	2r;>	.	2r;>	.	2r;>	.	2r;>	.	2r;>	.	2r;>	.
==	==	==	==	==	==	==	==	==	==	==	==	==	==
*-	*-	*-	*-	*-	*-	*-	*-	*-	*-	*-	*-	*-	*-
!!!system-decoration: (s1,s2,s3,s4,s5,s6,s7)
!!!RDF**kern: < = below
!!!RDF**kern: > = above
!!!RDF**kern: | = vertical stroke
!!!ENC: Marta Chmielewska
!!!END: 2021-06-10
!!!ENC: Katarzyna Serwa
!!!END: 2021-06-07
